!!!COM: Scriabin, Alexander
!!!OTL@@FR: Vers la Flamme
!!!OTL@@EN: To the Flame
!!!OPS: 72
!!!ODT: 1914
!!!AGN: Poem
**kern	**kern	**dynam	**kern	**dynam
*staff3	*staff2	*staff2/3	*staff1	*staff1/2
*Ipiano	*Ipiano	*	*Ipiano	*
*clefG2	*clefF4	*	*clefG2	*
*k[]	*k[]	*	*k[]	*
*X:	*X:	*	*X:	*
*M9/8	*M9/8	*	*M9/8	*
8r	8r	.	8A#X 8c#X/	.
=1	=1	=1	=1	=1
8%9r	[2.EE [2.AA#X/	.	[2.G#X [2.d/	.
.	4.EE] 4.AA#/]	.	4G#] 4d/]	.
.	.	.	8A#X 8c#X/	.
=2	=2	=2	=2	=2
8%9r	[2.EE [2.AA#X/	.	[2.G#X [2.d/	.
.	4.EE_ 4.AA#/_	.	4.G#_ 4.d/_	.
=3	=3	=3	=3	=3
8%9r	2.EE_ 2.AA#/_	.	8G#L] 8d/]	.
.	.	.	8A#X 8c#X	.
.	.	.	8G#XJ 8d	.
.	.	.	8A# 8f#X/	.
.	.	.	[4G# [4c#/	.
.	4.EE] 4.AA#/]	.	4G#] 4c#/]	.
.	.	.	8F#X 8A#/	.
=4	=4	=4	=4	=4
8%9r	[2.EE [2.AA#X/	.	[2.G#X [2.d/	.
.	4.EE] 4.AA#/]	.	8G#L] 8d/]	.
.	.	.	8A#X 8c#X	.
.	.	.	8G#J 8d	.
=5	=5	=5	=5	=5
8%9r	[2.GG [2.C#X/	.	8A#X 8f#X/	.
.	.	.	[4B [4fn/	.
.	.	.	2.B_ 2.f/_	.
.	4.GG_ 4.C#/_	.	.	.
=6	=6	=6	=6	=6
8%9r	2.GG_ 2.C#/_	.	2.B_ 2.f/_	.
.	4.GG] 4.C#/]	.	4B] 4f/]	.
.	.	.	8c#X 8e/	.
=7	=7	=7	=7	=7
8%9r	[2.GG [2.C#X/	.	[2.B [2.f/	.
.	4.GG] 4.C#/]	.	4B] 4f/]	.
.	.	.	8c#X 8e/	.
=8	=8	=8	=8	=8
8%9r	[2.GG [2.C#X/	.	[2.B [2.f/	.
.	4.GG_ 4.C#/_	.	4.B_ 4.f/_	.
=9	=9	=9	=9	=9
8%9r	2.GG_ 2.C#/_	.	8BL] 8f/]	.
.	.	.	8c#X 8e	.
.	.	.	8BJ 8f	.
.	.	.	8c# 8a/	.
.	.	.	[4B [4e/	.
.	4.GG] 4.C#/]	.	4B] 4e/]	.
.	.	.	8A 8c#/	.
=10	=10	=10	=10	=10
8%9r	[2.GG [2.C#X/	.	[2.B [2.f/	.
.	4.GG] 4.C#/]	.	8BL] 8f/]	.
.	.	.	8c#X 8e	.
.	.	.	8BJ 8f	.
=11	=11	=11	=11	=11
8%9r	[2.BB-X [2.E/	.	8c#X 8a/	.
.	.	.	[4d [4a-X/	.
.	.	.	2.d_ 2.a-/_	.
.	4.BB-_ 4.E/_	.	.	.
=12	=12	=12	=12	=12
8%9r	2.BB-_ 2.E/_	.	2.d_ 2.a-/_	.
.	4.BB-_ 4.E/_	.	4.d_ 4.a-/_	.
=13	=13	=13	=13	=13
8%9r	4.BB-] 4.E/]	.	4.d] 4.a-/]	.
.	2.BB-X 2.E/	.	2.d 2.a-X/	.
=14	=14	=14	=14	=14
8%9r	2.BB-X 2.E/	.	2.d 2.a-X/	.
.	4.BB- 4.En/	.	4.e-X 4.g/	.
=15	=15	=15	=15	=15
8%9r	[2.BB-X [2.E/	.	8c#X 8an/	.
.	.	.	[4d [4a-X/	.
.	.	.	2.d_ 2.a-/_	.
.	4.BB-_ 4.E/_	.	.	.
=16	=16	=16	=16	=16
8%9r	2.BB-_ 2.E/_	.	2.d_ 2.a-/_	.
.	4.BB-_ 4.E/_	.	4.d_ 4.a-/_	.
=17	=17	=17	=17	=17
8%9r	4.BB-] 4.E/]	.	4.d] 4.a-/]	.
.	2.BB-X 2.E/	.	2.d 2.a-X/	.
=18	=18	=18	=18	=18
8%9r	2.BB-X 2.E/	.	2.d 2.a-X/	.
.	4.BB- 4.F\	.	4.d 4.g/	.
=19	=19	=19	=19	=19
8%9r	4.BBn 4.F#X\	.	4.d 4.f#X/	.
.	[2.BB-X [2.E/	.	[2.d [2.a-X [2.cc/	.
=20	=20	=20	=20	=20
8%9r	2.BB-_ 2.E/_	.	2.d_ 2.a-_ 2.cc/_	.
.	4.BB-_ 4.E/_	.	4.d_ 4.a-_ 4.cc/_	.
=21	=21	=21	=21	=21
8%9r	4.BB-] 4.E/]	.	4.d] 4.a-] 4.cc/]	.
.	2.BB-X 2.E/	.	2.d 2.a-X 2.cc/	.
=22	=22	=22	=22	=22
8%9r	2.BB-X 2.E/	.	2.d 2.a-X 2.cc/	.
.	4.BB- 4.F\	.	4.d 4.g 4.bn/	.
=23	=23	=23	=23	=23
8%9r	4.BBn 4.F#X\	.	4.d 4.f#X 4.a#X/	.
*	*	*	*clefF4	*
.	[2.BBB-X [2.EE/	.	[2.D [2.A-X [2.c\	.
=24	=24	=24	=24	=24
8%9r	2.BBB-_ 2.EE/_	.	2.D_ 2.A-_ 2.c\_	.
.	4.BBB-_ 4.EE/_	.	4.D_ 4.A-_ 4.c\_	.
=25	=25	=25	=25	=25
8%9r	4.BBB-] 4.EE/]	.	4.D] 4.A-] 4.c\]	.
.	2.BBB-X 2.EE/	.	2.D 2.A-X 2.c\	.
=26	=26	=26	=26	=26
8%9r	2.BBB-X 2.EE/	.	2.D 2.A-X 2.c\	.
.	4.BBB- 4.FF/	.	4.D 4.G 4.Bn\	.
=27	=27	=27	=27	=27
*	*	*	*^	*
8%9r	[2.BBBn [2.FF#X/	.	[2.D [2.F#X [2.A#X\	4re	.
.	.	.	.	8d/	.
.	.	.	.	[2.c#X/	.
.	4.BBB] 4.FF#/]	.	4.D] 4.F#] 4.A#\]	.	.
=28	=28	=28	=28	=28	=28
8%9r	[2.EEE [2.EE/	.	[2.D 2.G#X [2.A#X\	4c#/]	.
.	.	.	.	8d/	.
.	.	.	.	[2.c#X/	.
.	4.EEE] 4.EE/]	.	4.D] 4.Gn 4.A#\]	.	.
=29	=29	=29	=29	=29	=29
8%9r	[2.BBB [2.FF#X/	.	[2.D [2.F#X [2.A#X\	4c#/]	.
.	.	.	.	8d/	.
.	.	.	.	[2.c#X/	.
.	4.BBB] 4.FF#/]	.	4.D] 4.F#] 4.A#\]	.	.
=30	=30	=30	=30	=30	=30
*	*	*	*	*^	*
8%9r	[2.DD [2.AA/	.	[2.Fn [2.An\	4.c#X\	4.c#/]	.
.	.	.	.	4.c#X\	4.d/	.
.	4.DD] 4.AA/]	.	4.F] 4.A\]	4cn\	4.f/	.
.	.	.	.	8B\	.	.
*	*	*	*	*v	*v	*
=31	=31	=31	=31	=31	=31
8%9r	[2.BBB [2.FF#X/	.	[2.D [2.F#X [2.A#X\	8g#X/L	.
.	.	.	.	8f#X	.
.	.	.	.	8dJ	.
.	.	.	.	[2.c#X/	.
.	4.BBB] 4.FF#/]	.	4.D] 4.F#] 4.A#\]	.	.
=32	=32	=32	=32	=32	=32
*	*	*	*	*^	*
8%9r	[2.DD [2.AA/	.	[2.Fn [2.An\	4.c#X\	4.c#/]	.
.	.	.	.	2.c#\	4.c#X/	.
.	4.DD] 4.AA/]	.	4.F] 4.A\]	.	4.d/	.
*	*	*	*	*v	*v	*
=33	=33	=33	=33	=33	=33
*	*^	*	*	*	*
8%9r	[2.BBB-X/	[2.FFn/	.	[2.D [2.A-X [2.c#X\	[2.f/	.
.	4.BBB-/_	4.FF/_	.	4.D] 4.A-] 4.c#\]	4.f/_	.
=34	=34	=34	=34	=34	=34	=34
8%9r	2.BBB-\_	4.FF/]	.	[2.D 2.A-X 2.cn\	8f/]	.
.	.	.	.	.	8re	.
.	.	.	.	.	8re	.
.	.	4.EE/	.	.	4re	.
.	.	.	.	.	8re	.
.	4.BBB-\]	4.FF/	.	4.D] 4.G 4.Bn\	4rf	.
.	.	.	.	.	8re	.
*	*v	*v	*	*	*	*
=35	=35	=35	=35	=35	=35
8%9r	[2.BBBn [2.FF#X/	.	[2.D [2.F#X [2.A#X\	4re	.
.	.	.	.	8d/	.
.	.	.	.	[2.c#X/	.
.	4.BBB] 4.FF#/]	.	4.D] 4.F#] 4.A#\]	.	.
=36	=36	=36	=36	=36	=36
8%9r	[2.BBB [2.FF#X/	.	[2.D [2.F#X [2.A#X\	4.c#/]	.
.	.	.	.	4.c#X/	.
.	4.BBB] 4.FF#/]	.	4.D] 4.F#] 4.A#\]	4.d/	.
=37	=37	=37	=37	=37	=37
*	*^	*	*	*	*
8%9r	[2.BBB-X/	[2.FFn/	.	[2.D [2.A-X [2.c#X\	[2.f/	.
.	4.BBB-/_	4.FF/_	.	4.D] 4.A-] 4.c#\]	4.f/_	.
=38	=38	=38	=38	=38	=38	=38
8%9r	2.BBB-\_	4.FF/]	.	[2.D 2.A-X 2.cn\	8f/]	.
.	.	.	.	.	8re	.
.	.	.	.	.	8re	.
.	.	4.EE/	.	.	4re	.
.	.	.	.	.	8re	.
.	4.BBB-\]	4.FF/	.	4.D] 4.G 4.Bn\	4rf	.
.	.	.	.	.	8re	.
*	*v	*v	*	*	*	*
=39	=39	=39	=39	=39	=39
8%9r	[2.BBBn [2.FF#X/	.	[2.D [2.F#X [2.A#X\	4re	.
.	.	.	.	8d/	.
.	.	.	.	[2.c#X/	.
.	4.BBB] 4.FF#/]	.	4.D] 4.F#] 4.A#\]	.	.
=40	=40	=40	=40	=40	=40
8%9r	[2.BBB [2.FF#X/	.	[2.D [2.F#X [2.A#X\	4.c#/]	.
.	.	.	.	4.c#X/	.
.	4.BBB] 4.FF#/]	.	4.D] 4.F#] 4.A#\]	4.d/	.
*	*	*	*clefG2	*	*
=41	=41	=41	=41	=41	=41
*	*^	*	*	*	*
8%9r	40%9rEE	[2.D/	.	8rB	[2.fn/	.
.	.	.	.	8d\L	.	.
.	40%9EE\	.	.	.	.	.
.	.	.	.	8G#XJ	.	.
.	.	.	.	4d\	.	.
.	40%9BBB\	.	.	.	.	.
.	.	.	.	8G#\	.	.
.	40%9EE\	.	.	.	.	.
.	.	4D/]	.	8d\L	4f/]	.
.	.	.	.	8G#J	.	.
.	40%9BBB\	.	.	.	.	.
.	.	[8BB/	.	8rB	8gn/	.
=42	=42	=42	=42	=42	=42	=42
8%9r	40%9rCC	2.BB/_	.	8rB	[2.f#X/	.
.	.	.	.	8c#X\L	.	.
.	40%9EE\	.	.	.	.	.
.	.	.	.	8GnJ	.	.
.	.	.	.	4c#\	.	.
.	40%9BBB\	.	.	.	.	.
.	.	.	.	[8G\	.	.
.	40%9EE\	.	.	.	.	.
.	.	4.BB/]	.	8G\L]	4.f#/]	.
.	.	.	.	8c#	.	.
.	40%9BBB\	.	.	.	.	.
.	.	.	.	8GJ	.	.
=43	=43	=43	=43	=43	=43	=43
8%9r	40%9rEE	[2.D/	.	8rB	[2.fn/	.
.	.	.	.	8d\L	.	.
.	40%9EE\	.	.	.	.	.
.	.	.	.	8G#XJ	.	.
.	.	.	.	4d\	.	.
.	40%9BBB\	.	.	.	.	.
.	.	.	.	8G#\	.	.
.	40%9EE\	.	.	.	.	.
.	.	4D/]	.	8d\L	4f/]	.
.	.	.	.	8G#J	.	.
.	40%9BBB\	.	.	.	.	.
.	.	[8BB/	.	8rB	8gn/	.
=44	=44	=44	=44	=44	=44	=44
8%9r	40%9rCC	2.BB/_	.	8rB	[2.f#X/	.
.	.	.	.	8c#X\L	.	.
.	40%9EE\	.	.	.	.	.
.	.	.	.	8GnJ	.	.
.	.	.	.	4c#\	.	.
.	40%9BBB\	.	.	.	.	.
.	.	.	.	8G\	.	.
.	40%9EE\	.	.	.	.	.
.	.	4BB/]	.	8c#\L	4f#/]	.
.	.	.	.	8GJ	.	.
.	40%9BBB\	.	.	.	.	.
.	.	[8D/	.	8rB	8a/	.
=45	=45	=45	=45	=45	=45	=45
8%9r	40%9rEE	2.D/_	.	8rB	[2.g#X/	.
.	.	.	.	8c#X\L	.	.
.	40%9EE\	.	.	.	.	.
.	.	.	.	8F#XJ	.	.
.	.	.	.	4c#\	.	.
.	40%9BBB\	.	.	.	.	.
.	.	.	.	[8F#\	.	.
.	40%9EE\	.	.	.	.	.
.	.	4.D/]	.	8F#\L]	4.g#/_	.
.	.	.	.	8c#	.	.
.	40%9BBB\	.	.	.	.	.
.	.	.	.	8F#J	.	.
=46	=46	=46	=46	=46	=46	=46
8%9r	40%9rEE	[2.D/	.	8rB	4g#/]	.
.	.	.	.	8G#X\L	.	.
.	40%9EE\	.	.	.	.	.
*	*	*	*	*clefF4	*	*
.	.	.	.	8F#XJ	[8c#X/	.
.	.	.	.	4G#\	4.c#/_	.
.	40%9BBB\	.	.	.	.	.
.	.	.	.	[8Fn\	.	.
.	40%9EE\	.	.	.	.	.
.	.	4.D/]	.	8F\L]	4c#/]	.
.	.	.	.	8G#	.	.
.	40%9BBB\	.	.	.	.	.
.	.	.	.	8EJ	8d/	.
=47	=47	=47	=47	=47	=47	=47
*	*	*	*	*	*^	*
8%9r	40%9rCC	[2.GGn/	.	4.ryy	8rAA	[2.e-X/	.
.	.	.	.	.	8A\L	.	.
.	40%9CCn\	.	.	.	.	.	.
.	.	.	.	.	8E-XJ	.	.
.	.	.	.	4.ryy	4A\	.	.
.	40%9GGG\	.	.	.	.	.	.
.	.	.	.	.	[8E-\	.	.
.	40%9CC\	.	.	.	.	.	.
.	.	4.GG/_	.	8ryy	8E-\L]	4.e-/_	.
.	.	.	.	8ryy	8AJ	.	.
.	40%9GGG\	.	.	.	.	.	.
.	.	.	.	8E-\	8ryy	.	.
=48	=48	=48	=48	=48	=48	=48	=48
8%9r	40%9rCC	2.GG/_	.	[2.D\	8rA	2.e-/_	.
.	.	.	.	.	8A\L	.	.
.	40%9CC\	.	.	.	.	.	.
.	.	.	.	.	8E-XJ	.	.
.	.	.	.	.	4A\	.	.
.	40%9GGG\	.	.	.	.	.	.
.	.	.	.	.	[8E-\	.	.
.	40%9CC\	.	.	.	.	.	.
.	.	4.GG/]	.	4.D\]	8E-\L]	4.e-/_	.
.	.	.	.	.	8A	.	.
.	40%9GGG\	.	.	.	.	.	.
.	.	.	.	.	8E-J	.	.
*	*	*	*	*	*v	*v	*
=49	=49	=49	=49	=49	=49	=49
8%9r	40%9rCC	[2.GG/	.	8rAA	2.e-/_	.
.	.	.	.	8A\L	.	.
.	40%9CC\	.	.	.	.	.
.	.	.	.	8E-XJ	.	.
.	.	.	.	4A\	.	.
.	40%9GGG\	.	.	.	.	.
.	.	.	.	8E-\	.	.
.	40%9CC\	.	.	.	.	.
.	.	4GG/]	.	8A\L	4e-/]	.
.	.	.	.	8E-J	.	.
.	40%9GGG\	.	.	.	.	.
.	.	[8GG/	.	8rAA	8e-X/	.
=50	=50	=50	=50	=50	=50	=50
8%9r	40%9rCC	2.GG/_	.	8rAA	[2.d/	.
.	.	.	.	8A\L	.	.
.	40%9CC\	.	.	.	.	.
.	.	.	.	8E-XJ	.	.
.	.	.	.	4A\	.	.
.	40%9GGG\	.	.	.	.	.
.	.	.	.	[8E-\	.	.
.	40%9CC\	.	.	.	.	.
.	.	4.GG/]	.	8E-\L]	4.d/]	.
.	.	.	.	8A	.	.
.	40%9GGG\	.	.	.	.	.
.	.	.	.	8E-J	.	.
=51	=51	=51	=51	=51	=51	=51
8%9r	40%9rCC	[2.BB-X/	.	8rAA	[2.d-X/	.
.	.	.	.	8B-X\L	.	.
.	40%9CC\	.	.	.	.	.
.	.	.	.	8EnJ	.	.
.	.	.	.	4B-\	.	.
.	40%9GGG\	.	.	.	.	.
.	.	.	.	8E\	.	.
.	40%9CC\	.	.	.	.	.
.	.	4BB-/]	.	8B-\L	4d-/]	.
.	.	.	.	8EJ	.	.
.	40%9GGG\	.	.	.	.	.
.	.	[8GG/	.	8rAA	8e-X/	.
=52	=52	=52	=52	=52	=52	=52
8%9r	40%9rCC	2.GG/_	.	8rAA	[2.dn/	.
.	.	.	.	8A\L	.	.
.	40%9CC\	.	.	.	.	.
.	.	.	.	8E-XJ	.	.
.	.	.	.	4A\	.	.
.	40%9GGG\	.	.	.	.	.
.	.	.	.	8E-\	.	.
.	40%9CC\	.	.	.	.	.
.	.	4GG/]	.	8A\L	4d/]	.
.	.	.	.	8E-J	.	.
.	40%9GGG\	.	.	.	.	.
.	.	[8BB-X/	.	8rAA	8f/	.
=53	=53	=53	=53	=53	=53	=53
8%9r	40%9rCC	2.BB-/_	.	8rAA	[2.e/	.
.	.	.	.	8A\L	.	.
.	40%9CC\	.	.	.	.	.
.	.	.	.	8DJ	.	.
.	.	.	.	4A\	.	.
.	40%9GGG\	.	.	.	.	.
.	.	.	.	[8D\	.	.
.	40%9CC\	.	.	.	.	.
.	.	4.BB-/]	.	8D\L]	4.e/_	.
.	.	.	.	8A	.	.
.	40%9GGG\	.	.	.	.	.
.	.	.	.	8DJ	.	.
=54	=54	=54	=54	=54	=54	=54
8%9r	40%9rAA	[2.B-X/	.	8rAA	4e/]	.
.	.	.	.	8e\L	.	.
.	40%9C\	.	.	.	.	.
*	*	*	*	*clefG2	*	*
.	.	.	.	8dJ	[8a/	.
.	.	.	.	4e\	4.a/_	.
.	40%9GG\	.	.	.	.	.
.	.	.	.	[8d-X\	.	.
.	40%9C\	.	.	.	.	.
.	.	4.B-/]	.	8d-\L]	4a/]	.
.	.	.	.	8e	.	.
.	40%9GG\	.	.	.	.	.
.	.	.	.	8cJ	8b-X/	.
=55	=55	=55	=55	=55	=55	=55
*	*	*	*	*	*^	*
8%9r	40%9rFF	[2.E-X/	.	4.ryy	8rB	[2.cc-X/	.
.	.	.	.	.	8f\L	.	.
.	40%9AA-X\	.	.	.	.	.	.
.	.	.	.	.	8c-XJ	.	.
.	.	.	.	4.ryy	4f\	.	.
.	40%9EE-X\	.	.	.	.	.	.
.	.	.	.	.	[8c-\	.	.
.	40%9AA-\	.	.	.	.	.	.
.	.	4.E-/_	.	8ryy	8c-\L]	4.cc-/_	.
.	.	.	.	8ryy	8fJ	.	.
.	40%9EE-\	.	.	.	.	.	.
.	.	.	.	8c-\	8rf	.	.
=56	=56	=56	=56	=56	=56	=56	=56
8%9r	40%9rEE	2.E-/_	.	[2.B-X\	8rf	2.cc-/_	.
.	.	.	.	.	8f\L	.	.
.	40%9AA-X\	.	.	.	.	.	.
.	.	.	.	.	8c-XJ	.	.
.	.	.	.	.	4f\	.	.
.	40%9EE-X\	.	.	.	.	.	.
.	.	.	.	.	[8c-\	.	.
.	40%9AA-\	.	.	.	.	.	.
.	.	4.E-/]	.	4.B-\]	8c-\L]	4.cc-/_	.
.	.	.	.	.	8f	.	.
.	40%9EE-\	.	.	.	.	.	.
.	.	.	.	.	8c-J	.	.
*	*	*	*	*	*v	*v	*
=57	=57	=57	=57	=57	=57	=57
8%9r	40%9rEE	[2.E-X/	.	8re	2.cc-/_	.
.	.	.	.	8f\L	.	.
.	40%9AA-X\	.	.	.	.	.
.	.	.	.	8c-XJ	.	.
.	.	.	.	4f\	.	.
.	40%9EE-X\	.	.	.	.	.
.	.	.	.	8c-\	.	.
.	40%9AA-\	.	.	.	.	.
.	.	4E-/]	.	8f\L	4cc-/]	.
.	.	.	.	8c-J	.	.
.	40%9EE-\	.	.	.	.	.
.	.	[8E-/	.	8re	8cc-X/	.
=58	=58	=58	=58	=58	=58	=58
8%9r	40%9rEE	2.E-/_	.	8re	[2.b-X/	.
.	.	.	.	8f\L	.	.
.	40%9AA-X\	.	.	.	.	.
.	.	.	.	8c-XJ	.	.
.	.	.	.	4f\	.	.
.	40%9EE-X\	.	.	.	.	.
.	.	.	.	8c-\	.	.
.	40%9AA-\	.	.	.	.	.
.	.	4E-/]	.	8f\L	4b-/]	.
.	.	.	.	8c-J	.	.
.	40%9EE-\	.	.	.	.	.
.	.	[8G-X/	.	8re	8dd-X/	.
=59	=59	=59	=59	=59	=59	=59
*	*	*	*	*	*^	*
8%9r	40%9rEE	2.G-/_	.	4.ryy	8re	[2.ccn/	.
.	.	.	.	.	8f\L	.	.
.	40%9AA-X\	.	.	.	.	.	.
.	.	.	.	.	8B-XJ	.	.
.	.	.	.	4.ryy	4f\	.	.
.	40%9EE-X\	.	.	.	.	.	.
.	.	.	.	.	8B-\	.	.
.	40%9AA-\	.	.	.	.	.	.
.	.	4.G-/_	.	8ryy	8f\L	4.cc/_	.
.	.	.	.	8ryy	8B-J	.	.
.	40%9EE-\	.	.	.	.	.	.
.	.	.	.	8g-X/	8rc	.	.
=60	=60	=60	=60	=60	=60	=60	=60
8%9r	40%9rEE	2.G-/_	.	[2.f/	8rc	2.cc/_	.
.	.	.	.	.	8c\L	.	.
.	40%9AA-X\	.	.	.	.	.	.
.	.	.	.	.	8B-XJ	.	.
.	.	.	.	.	4c\	.	.
.	40%9EE-X\	.	.	.	.	.	.
.	.	.	.	.	[8B-\	.	.
.	40%9AA-\	.	.	.	.	.	.
.	.	4.G-/]	.	4.f/]	8B-\L]	4.cc/]	.
.	.	.	.	.	8c	.	.
.	40%9EE-\	.	.	.	.	.	.
.	.	.	.	.	8B-J	.	.
*	*	*	*	*	*v	*v	*
=61	=61	=61	=61	=61	=61	=61
8%9r	40%9rEE	[2.E-X/	.	8rc	4rff	.
.	.	.	.	8f\L	.	.
.	40%9AA-X\	.	.	.	.	.
.	.	.	.	8c-XJ	8rff	.
.	.	.	.	4f\	4rff	.
.	40%9EE-X\	.	.	.	.	.
.	.	.	.	8c-\	8rff	.
.	40%9AA-\	.	.	.	.	.
.	.	4E-/]	.	8f\L	4rff	.
.	.	.	.	8c-J	.	.
.	40%9EE-\	.	.	.	.	.
.	.	[8E-/	.	8rc	8cc-X/	.
=62	=62	=62	=62	=62	=62	=62
8%9r	40%9rEE	2.E-/_	.	8re	[2.b-X/	.
.	.	.	.	8f\L	.	.
.	40%9AA-X\	.	.	.	.	.
.	.	.	.	8c-XJ	.	.
.	.	.	.	4f\	.	.
.	40%9EE-X\	.	.	.	.	.
.	.	.	.	8c-\	.	.
.	40%9AA-\	.	.	.	.	.
.	.	4E-/]	.	8f\L	4b-/]	.
.	.	.	.	8c-J	.	.
.	40%9EE-\	.	.	.	.	.
.	.	[8G-X/	.	8re	8dd-X/	.
=63	=63	=63	=63	=63	=63	=63
8%9r	40%9rEE	2.G-/_	.	8re	[2.ccn/	.
.	.	.	.	8f\L	.	.
.	40%9AA-X\	.	.	.	.	.
.	.	.	.	8B-XJ	.	.
.	.	.	.	4f\	.	.
.	40%9EE-X\	.	.	.	.	.
.	.	.	.	8B-\	.	.
.	40%9AA-\	.	.	.	.	.
.	.	4G-/]	.	8f\L	4cc/]	.
.	.	.	.	8B-J	.	.
.	40%9EE-\	.	.	.	.	.
.	.	[8Gn/	.	8re	8cc#X/	.
=64	=64	=64	=64	=64	=64	=64
*	*	*^	*	*	*	*
8%9r	4.ryy	40%9rEE	2.G/_	.	8re	[2.bn/	.
.	.	.	.	.	8g\L	.	.
.	.	40%9EEn\	.	.	.	.	.
.	.	.	.	.	8enJ	.	.
.	4.ryy	.	.	.	4g\	.	.
.	.	40%9BBB\	.	.	.	.	.
.	.	.	.	.	8e\	.	.
.	.	40%9EE\	.	.	.	.	.
.	8ryy	.	4G/]	.	8g\L	4b/]	.
.	8ryy	.	.	.	8eJ	.	.
.	.	40%9BBB\	.	.	.	.	.
.	16rAA	.	[8F#X [8f#X/	.	8re	8dd/	.
.	16d\	.	.	.	.	.	.
*	*	*v	*v	*	*	*	*
=65	=65	=65	=65	=65	=65	=65
8%9r	16G#X\LL	2.F#] 2.f#/]	.	8re	[2.cc#X/	.
.	16D	.	.	.	.	.
.	16EE	.	.	8b\L	.	.
.	16BBBJJ	.	.	.	.	.
.	8rFF	.	.	8g#XJ	.	.
.	4rFF	.	.	4b\	.	.
.	8rFF	.	.	8g#\	.	.
.	4DD 4GGn 4Fn 4B\	4rg	.	8a\L	4cc#/]	.
.	.	.	.	8fnJ	.	.
.	8rFF	[8F#X/	.	8re	8dd/	.
=66	=66	=66	=66	=66	=66	=66
8%9r	40%9rFF	2.F#/_	.	8re	[2.cc#X/	.
.	.	.	.	8g#X\L	.	.
.	40%9BB\	.	.	.	.	.
.	.	.	.	8dJ	.	.
.	.	.	.	8re	.	.
.	40%9FF#X\	.	.	.	.	.
.	.	.	.	8d\L	.	.
.	.	.	.	8g#J	.	.
.	40%9FF#\	.	.	.	.	.
.	.	4F#/]	.	8cc#\L	4cc#/]	.
.	.	.	.	8g#J	.	.
.	40%9FFF#X\	.	.	.	.	.
.	.	[8A/	.	8re	8ee/	.
=67	=67	=67	=67	=67	=67	=67
8%9r	40%9rFF	2.A/_	.	8re	[2.dd#X/	.
.	.	.	.	8g#X\L	.	.
.	40%9BB\	.	.	.	.	.
.	.	.	.	8c#XJ	.	.
.	.	.	.	8re	.	.
.	40%9FF#X\	.	.	.	.	.
.	.	.	.	8c#\L	.	.
.	.	.	.	8g#J	.	.
.	40%9FF#\	.	.	.	.	.
.	.	4A/]	.	8cc#X\L	4dd#/]	.
.	.	.	.	8g#J	.	.
.	40%9FFF#X\	.	.	.	.	.
.	.	[8B-X/	.	8re	8ee/	.
=68	=68	=68	=68	=68	=68	=68
*	*	*^	*	*	*	*
8%9r	4.ryy	40%9rFF	2.B-/_	.	8re	[2.ddn/	.
.	.	.	.	.	8gn\L	.	.
.	.	40%9GG\	.	.	.	.	.
.	.	.	.	.	8B-XJ	.	.
.	4.ryy	.	.	.	8re	.	.
.	.	40%9DD\	.	.	.	.	.
.	.	.	.	.	8B-\L	.	.
.	.	.	.	.	8gJ	.	.
.	.	40%9DD\	.	.	.	.	.
.	8ryy	.	4B-/]	.	8b-X\L	4dd/]	.
.	8ryy	.	.	.	8gJ	.	.
.	.	40%9DDD\	.	.	.	.	.
.	16rFF	.	[8A [8a/	.	8re	8ffn/	.
.	16f\	.	.	.	.	.	.
*	*	*v	*v	*	*	*	*
=69	=69	=69	=69	=69	=69	=69
8%9r	16Bn\LL	2.A_ 2.a/_	.	8re	[2.ee/	.
.	16F	.	.	.	.	.
.	16GG	.	.	8f\L	.	.
.	16DDJJ	.	.	.	.	.
.	8rFF	.	.	8BnJ	.	.
.	4rFF	.	.	8rc	.	.
.	.	.	.	8B\L	.	.
.	8rFF	.	.	8fJ	.	.
.	4rFF	4A] 4a/]	.	8b\L	4ee/]	.
.	.	.	.	8fJ	.	.
.	16rFF	[8c [8cc/	.	8re	8ff/	.
.	16a-X\	.	.	.	.	.
=70	=70	=70	=70	=70	=70	=70
8%9r	16d\LL	2.c_ 2.cc/_	.	8re	[2.ee/	.
.	16A-X	.	.	.	.	.
.	16BB-X	.	.	8eL 8g\	.	.
.	16FFJJ	.	.	.	.	.
.	8rFF	.	.	8dJ 8a-X	.	.
.	4rFF	.	.	4e 4cc\	.	.
.	8rFF	.	.	[8d [8g\	.	.
.	4rFF	4c] 4cc/]	.	8dL] 8g\]	4ee/]	.
.	.	.	.	8cJ 8e	.	.
.	16rFF	[8An [8an/	.	8re	8ff/	.
.	16f\	.	.	.	.	.
=71	=71	=71	=71	=71	=71	=71
8%9r	16Bn\LL	2.A_ 2.a/_	.	8re	[2.ee/	.
.	16F	.	.	.	.	.
.	16GG	.	.	8dd\L	.	.
.	16DDJJ	.	.	.	.	.
.	8rFF	.	.	8bJ	.	.
.	4rFF	.	.	8rc	.	.
.	.	.	.	8d\L	.	.
.	8rFF	.	.	8bJ	.	.
.	4rFF	4A] 4a/]	.	8dd\L	4ee/]	.
.	.	.	.	8bJ	.	.
.	16rFF	[8B-X [8b-X/	.	8re	8ff#X/	.
.	16g\	.	.	.	.	.
=72	=72	=72	=72	=72	=72	=72
8%9r	16d\LL	2.B-_ 2.b-/_	.	8re	[2.ee/	.
.	16Fn	.	.	.	.	.
.	16GG	.	.	8dd\L	.	.
.	16DDJJ	.	.	.	.	.
.	8rFF	.	.	8b-XJ	.	.
.	4rFF	.	.	8dd\L	.	.
.	.	.	.	8b-	.	.
.	8rFF	.	.	8dJ	.	.
.	4rFF	4B-] 4b-/]	.	8b-\L	4ee/]	.
.	.	.	.	8ddJ	.	.
.	16rFF	[8c [8cc/	.	8re	[8gg/	.
.	16a-X\	.	.	.	.	.
=73	=73	=73	=73	=73	=73	=73
8%9r	16d\LL	2.c_ 2.cc/_	.	8re	[2.ff 2.gg/_	.
.	16A-X	.	.	.	.	.
.	16BB-X	.	.	8dd\L	.	.
.	16FFJJ	.	.	.	.	.
.	8rFF	.	.	8ccJ	.	.
.	4rFF	.	.	8dd\L	.	.
.	.	.	.	16qqd/LL	.	.
.	.	.	.	16qqe	.	.
.	.	.	.	16qqg	.	.
.	.	.	.	16qqa-XJJ	.	.
.	.	.	.	8cc	.	.
.	8rFF	.	.	8dJ	.	.
.	4rFF	4c] 4cc/]	.	8cc\L	4ff] 4gg/]	.
.	.	.	.	8ddJ	.	.
.	16rFF	[8e-X [8ee-X/	.	8re	[8gg/	.
.	16cc-X\	.	.	.	.	.
=74	=74	=74	=74	=74	=74	=74
8%9r	16f\LL	2.e-_ 2.ee-/_	.	8re	[2.ff 2.gg/_	.
.	16c-X	.	.	.	.	.
.	16D-X	.	.	8gL 8b-X\	.	.
.	16AA-XJJ	.	.	.	.	.
.	8rFF	.	.	8fJ 8cc-X	.	.
.	4rFF	.	.	4g 4ee-X\	.	.
.	8rFF	.	.	[8f [8b-\	.	.
.	4rFF	4e-] 4ee-/]	.	8fL] 8b-\]	4ff] 4gg/]	.
.	.	.	.	8e-XJ 8g	.	.
.	16rFF	[8cn [8ccn/	.	8re	[8gg/	.
.	16a-X\	.	.	.	.	.
=75	=75	=75	=75	=75	=75	=75
8%9r	16dn\LL	2.c_ 2.cc/_	.	8re	[2.ff 2.gg/_	.
.	16A-X	.	.	.	.	.
.	16BB-X	.	.	8dd\L	.	.
.	16FFJJ	.	.	.	.	.
.	8rFF	.	.	8ccnJ	.	.
.	4rFF	.	.	8dd\L	.	.
.	.	.	.	16qqd/LL	.	.
.	.	.	.	16qqe	.	.
.	.	.	.	16qqg	.	.
.	.	.	.	16qqa-XJJ	.	.
.	.	.	.	8cc	.	.
.	8rFF	.	.	8dJ	.	.
.	4rFF	4c] 4cc/]	.	8cc\L	4ff] 4gg/]	.
.	.	.	.	8ddJ	.	.
.	16rFF	[8c [8cc/	.	8re	[8ff [8gg/	.
.	16a-X\	.	.	.	.	.
*	*	*	*	*v	*v	*
=76	=76	=76	=76	=76	=76
8%9r	16d\LL	2.c] 2.cc/]	.	8ffL] 8gg\]	.
.	16A-X	.	.	.	.
.	16BB-X	.	.	8cc 8dd	.
.	16FFJJ	.	.	.	.
.	8rFF	.	.	[8ffJ [8gg	.
.	4rFF	.	.	4ff] 4gg\]	.
.	8rFF	.	.	8cc 8dd\	.
.	4.AA-X 4.D-X 4.c-X 4.f\	4.ryy	.	16b-XLL 16ccn\	.
.	.	.	.	16an	.
.	.	.	.	16b- 16cc	.
.	.	.	.	16a	.
.	.	.	.	16b- 16cc	.
.	.	.	.	16aJJ	.
=77	=77	=77	=77	=77	=77
8%9r	[2.BBn [2.E [2.B [2.e\	4.ryy	.	24g#XKL 24a#X 24bn 24cc#X/	.
.	.	.	.	24r	.
.	.	.	.	24g#L 24a#	.
.	.	.	.	24b 24cc#	.
.	.	.	.	24g# 24a#	.
.	.	.	.	24b 24cc#	.
.	.	.	.	24g# 24a#	.
.	.	.	.	24b 24cc#	.
.	.	.	.	24g#JJ 24a#	.
.	.	4.ryy	.	24bLL 24cc#/	.
.	.	.	.	24g# 24a#	.
.	.	.	.	24b 24cc#	.
.	.	.	.	24g# 24a#	.
.	.	.	.	24b 24cc#	.
.	.	.	.	24g# 24a#	.
.	.	.	.	24b 24cc#	.
.	.	.	.	24g# 24a#	.
.	.	.	.	24bJJ 24cc#	.
.	4.BB_ 4.E_ 4.B_ 4.e\_	8ra	.	24g#LL 24a#/	.
.	.	.	.	24b 24cc#	.
.	.	.	.	24g# 24a#	.
.	.	8A#XL 8c#X/	.	24b 24cc#	.
.	.	.	.	24g# 24a#	.
.	.	.	.	24b 24cc#	.
.	.	8G#XJ 8d	.	24g# 24a#	.
.	.	.	.	24b 24cc#	.
.	.	.	.	24g#JJ 24a#	.
=78	=78	=78	=78	=78	=78
8%9r	2.BB_ 2.E_ 2.B_ 2.e\_	8A#XL 8f#X/	.	24bLL 24cc#X/	.
.	.	.	.	24g#X 24a#X	.
.	.	.	.	24b 24cc#	.
.	.	8G#X 8c#X	.	24g# 24a#	.
.	.	.	.	24b 24cc#	.
.	.	.	.	24g# 24a#	.
.	.	8F#XJ 8A#	.	24b 24cc#	.
.	.	.	.	24g# 24a#	.
.	.	.	.	24bJJ 24cc#	.
.	.	8G#L 8d/	.	24g#LL 24a#/	.
.	.	.	.	24b 24cc#	.
.	.	.	.	24g# 24a#	.
.	.	8A# 8c#	.	24b 24cc#	.
.	.	.	.	24g# 24a#	.
.	.	.	.	24b 24cc#	.
.	.	8G#J 8d	.	24g# 24a#	.
.	.	.	.	24b 24cc#	.
.	.	.	.	24g#JJ 24a#	.
.	4.BB] 4.E] 4.B] 4.e\]	8A#L 8f#/	.	24bLL 24cc#/	.
.	.	.	.	24g# 24a#	.
.	.	.	.	24b 24cc#	.
.	.	8G# 8c#	.	24g# 24a#	.
.	.	.	.	24b 24cc#	.
.	.	.	.	24g# 24a#	.
.	.	8F#J 8A#	.	24b 24cc#	.
.	.	.	.	24g# 24a#	.
.	.	.	.	24bJJ 24cc#	.
=79	=79	=79	=79	=79	=79
8%9r	[2.EE [2.BB [2.E\	8G#XL 8d/	.	8r	.
.	.	8A#X 8c#X	.	24bLL 24cc#X/	.
.	.	.	.	24g#X 24a#X	.
.	.	.	.	24b 24cc#	.
.	.	8G#J 8d	.	24g# 24a#	.
.	.	.	.	24b 24cc#	.
.	.	.	.	24g#JJ 24a#	.
.	.	8A#L 8f#X/	.	24bLL 24cc#/	.
.	.	.	.	24g# 24a#	.
.	.	.	.	24b 24cc#	.
.	.	8G# 8c#	.	24g# 24a#	.
.	.	.	.	24b 24cc#	.
.	.	.	.	24g# 24a#	.
.	.	8F#XJ 8A#	.	24b 24cc#	.
.	.	.	.	24g# 24a#	.
.	.	.	.	24bJJ 24cc#	.
.	4.EE] 4.BB] 4.E\]	8G#L 8d/	.	24g#LL 24a#/	.
.	.	.	.	24b 24cc#	.
.	.	.	.	24g# 24a#	.
.	.	8A# 8c#	.	24b 24cc#	.
.	.	.	.	24g# 24a#	.
.	.	.	.	24b 24cc#	.
.	.	8G#J 8d	.	24g# 24a#	.
.	.	.	.	24b 24cc#	.
.	.	.	.	24g#JJ 24a#	.
=80	=80	=80	=80	=80	=80
8%9r	[2.BBB [2.EE [2.BB\	8A#XL 8f#X/	.	8r	.
.	.	8G#X 8c#X	.	24g#XLL 24a#X/	.
.	.	.	.	24b 24cc#X	.
.	.	.	.	24g# 24a#	.
.	.	8F#XJ 8A#	.	24b 24cc#	.
.	.	.	.	24g# 24a#	.
.	.	.	.	24bJJ 24cc#	.
.	.	8G#L 8d/	.	24g#LL 24a#/	.
.	.	.	.	24b 24cc#	.
.	.	.	.	24g# 24a#	.
.	.	8A# 8c#	.	24b 24cc#	.
.	.	.	.	24g# 24a#	.
.	.	.	.	24b 24cc#	.
.	.	8G#J 8d	.	24g# 24a#	.
.	.	.	.	24b 24cc#	.
.	.	.	.	24g#JJ 24a#	.
.	4.BBB] 4.EE] 4.BB\]	8A#L 8f#/	.	24bLL 24cc#/	.
.	.	.	.	24g# 24a#	.
.	.	.	.	24b 24cc#	.
.	.	8G# 8c#	.	24g# 24a#	.
.	.	.	.	24b 24cc#	.
.	.	.	.	24g# 24a#	.
.	.	8F#J 8A#	.	24b 24cc#	.
.	.	.	.	24g# 24a#	.
.	.	.	.	24bJJ 24cc#	.
=81	=81	=81	=81	=81	=81
*	*	*	*	*^	*
8%9r	40%3BBB-XL 40%3BB-X\	8A-X 8d/	.	24re	4rff	.
.	.	.	.	24dLL 24gn\	.	.
.	40%3cn	.	.	.	.	.
.	.	.	.	[24a-X [24ccn	.	.
.	.	8ryy	.	24a-] 24cc]	.	.
.	40%3A-	.	.	.	.	.
.	.	.	.	24d 24g	.	.
.	.	.	.	24a- 24cc	.	.
.	40%3BB-	.	.	.	.	.
.	.	8ryy	.	24d 24g	12rff	.
.	.	.	.	24a-JJ 24cc	.	.
.	40%3BB-J	.	.	.	.	.
.	.	.	.	24re	24aa-X/	.
.	32%3BBB-L/	4.ryy	.	24re	[2.gg/	.
.	.	.	.	24a-LL 24cc\	.	.
.	.	.	.	[24d [24g	.	.
.	32%3BB-	.	.	.	.	.
.	.	.	.	24d] 24g]	.	.
.	.	.	.	24a- 24cc	.	.
.	32%3BB-	.	.	.	.	.
.	.	.	.	24d 24g	.	.
.	.	.	.	24a- 24cc	.	.
.	32%3A-J	.	.	.	.	.
.	.	.	.	24d 24g	.	.
.	.	.	.	[24a-JJ [24cc	.	.
.	32%3cL\	4.ryy	.	24a-LL] 24cc\]	.	.
.	.	.	.	24d 24g	.	.
.	.	.	.	[24a- [24cc	.	.
.	32%3A-	.	.	.	.	.
.	.	.	.	24a-] 24cc]	.	.
.	.	.	.	24d 24g	.	.
.	32%3BB-	.	.	.	.	.
.	.	.	.	24a- 24cc	.	.
.	.	.	.	24d 24g	.	.
.	32%3A-J	.	.	.	.	.
.	.	.	.	24a- 24cc	.	.
.	.	.	.	24dJJ 24g	.	.
=82	=82	=82	=82	=82	=82	=82
8%9r	40%3r	8%9ryy	.	24a-XLL 24cc-X\	8gg/]	.
.	.	.	.	24d 24g	.	.
.	40%3c-X\L	.	.	.	.	.
.	.	.	.	[24a- [24cc-	.	.
.	.	.	.	24a-] 24cc-]	8rff	.
.	40%3A-X	.	.	.	.	.
.	.	.	.	24d 24g	.	.
.	.	.	.	24a- 24cc-	.	.
.	40%3C-X	.	.	.	.	.
.	.	.	.	24d 24g	12rff	.
.	.	.	.	24a-JJ 24cc-	.	.
.	40%3EE-XJ	.	.	.	.	.
.	.	.	.	24re	24aa-X/	.
.	32%3EEE-X/L	.	.	24re	[2.gg/	.
.	.	.	.	24a-LL 24cc-\	.	.
.	.	.	.	[24d [24g	.	.
.	32%3EE-	.	.	.	.	.
.	.	.	.	24d] 24g]	.	.
.	.	.	.	24a- 24cc-	.	.
.	32%3C-	.	.	.	.	.
.	.	.	.	24d 24g	.	.
.	.	.	.	24a- 24cc-	.	.
.	32%3A-J	.	.	.	.	.
.	.	.	.	24d 24g	.	.
.	.	.	.	[24a-JJ [24cc-	.	.
.	32%3c-\L	.	.	24a-LL] 24cc-\]	.	.
.	.	.	.	24d 24g	.	.
.	.	.	.	[24a- [24cc-	.	.
.	32%3A-	.	.	.	.	.
.	.	.	.	24a-] 24cc-]	.	.
.	.	.	.	24d 24g	.	.
.	32%3C-	.	.	.	.	.
.	.	.	.	24a- 24cc-	.	.
.	.	.	.	24d 24g	.	.
.	32%3A-J	.	.	.	.	.
.	.	.	.	24a- 24cc-	.	.
.	.	.	.	24dJJ 24g	.	.
=83	=83	=83	=83	=83	=83	=83
8%9r	40%3r	8%9ryy	.	24a-XLL 24ccn\	8gg/]	.
.	.	.	.	24d 24g	.	.
.	40%3cn\L	.	.	.	.	.
.	.	.	.	[24a- [24cc	.	.
.	.	.	.	24a-] 24cc]	8rff	.
.	40%3A-X	.	.	.	.	.
.	.	.	.	24d 24g	.	.
.	.	.	.	24a- 24cc	.	.
.	40%3BB-X	.	.	.	.	.
.	.	.	.	24d 24g	12rff	.
.	.	.	.	24a-JJ 24cc	.	.
.	40%3BB-J	.	.	.	.	.
.	.	.	.	24re	24aa-X/	.
.	32%3BBB-X/L	.	.	24re	[2.gg/	.
.	.	.	.	24a-LL 24cc\	.	.
.	.	.	.	[24d [24g	.	.
.	32%3BB-	.	.	.	.	.
.	.	.	.	24d] 24g]	.	.
.	.	.	.	24a- 24cc	.	.
.	32%3BB-	.	.	.	.	.
.	.	.	.	24d 24g	.	.
.	.	.	.	24a- 24cc	.	.
.	32%3A-J	.	.	.	.	.
.	.	.	.	24d 24g	.	.
.	.	.	.	[24a-JJ [24cc	.	.
.	32%3c\L	.	.	24a-LL] 24cc\]	.	.
.	.	.	.	24d 24g	.	.
.	.	.	.	[24a- [24cc	.	.
.	32%3A-	.	.	.	.	.
.	.	.	.	24a-] 24cc]	.	.
.	.	.	.	24d 24g	.	.
.	32%3BB-	.	.	.	.	.
.	.	.	.	24a- 24cc	.	.
.	.	.	.	24d 24g	.	.
.	32%3A-J	.	.	.	.	.
.	.	.	.	24a- 24cc	.	.
.	.	.	.	24dJJ 24g	.	.
=84	=84	=84	=84	=84	=84	=84
8%9r	[2.D-X [2.c-X [2.f\	4.rdd	.	24cc-XLL 24ee-X\	4.gg/]	.
.	.	.	.	24f 24b-X	.	.
.	.	.	.	[24cc- [24ee-	.	.
.	.	.	.	24cc-] 24ee-]	.	.
.	.	.	.	24f 24b-	.	.
.	.	.	.	24cc- 24ee-	.	.
.	.	.	.	24f 24b-	.	.
.	.	.	.	24cc- 24ee-	.	.
.	.	.	.	24fJJ 24b-	.	.
.	.	4.e-X/	.	24re	4.gg-X 4.aa/	.
.	.	.	.	24cc-LL 24ee-\	.	.
.	.	.	.	[24f [24b-	.	.
.	.	.	.	24f] 24b-]	.	.
.	.	.	.	24cc- 24ee-	.	.
.	.	.	.	24f 24b-	.	.
.	.	.	.	24cc- 24ee-	.	.
.	.	.	.	24f 24b-	.	.
.	.	.	.	24cc-JJ 24ee-	.	.
.	4.D-] 4.c-] 4.f\]	4.A-X/	.	24re	4.gg- 4.ccc-X/	.
.	.	.	.	24fLL 24b-\	.	.
.	.	.	.	[24cc- [24ee-	.	.
.	.	.	.	24cc-] 24ee-]	.	.
.	.	.	.	24f 24b-	.	.
.	.	.	.	24cc- 24ee-	.	.
.	.	.	.	24f 24b-	.	.
.	.	.	.	24cc- 24ee-	.	.
.	.	.	.	24fJJ 24b-	.	.
=85	=85	=85	=85	=85	=85	=85
.	.	.	.	.	16qqddn/LL	.
.	.	.	.	.	16qqaa-XJJ	.
8%9r	4.BB-X 4.A-X 4.dn\	8%9ryy	.	8re	8dddn/L	.
.	.	.	.	24a-XLL 24ccn\	8cccn	.
.	.	.	.	24d 24g	.	.
.	.	.	.	24a- 24cc	.	.
.	.	.	.	24d 24g	8aa-XJ	.
.	.	.	.	24a- 24cc	.	.
.	.	.	.	24dJJ 24g	.	.
.	32%3r	.	.	24re	[2.gg/	.
.	.	.	.	24a-LL 24cc\	.	.
.	.	.	.	[24d [24g	.	.
.	32%3BBB-X/L	.	.	.	.	.
.	.	.	.	24d] 24g]	.	.
.	.	.	.	24a- 24cc	.	.
.	32%3BB-	.	.	.	.	.
.	.	.	.	24d 24g	.	.
.	.	.	.	24a- 24cc	.	.
.	32%3A-J	.	.	.	.	.
.	.	.	.	24d 24g	.	.
.	.	.	.	[24a-JJ [24cc	.	.
.	32%3c\L	.	.	24a-LL] 24cc\]	.	.
.	.	.	.	24d 24g	.	.
.	.	.	.	[24a- [24cc	.	.
.	32%3A-	.	.	.	.	.
.	.	.	.	24a-] 24cc]	.	.
.	.	.	.	24d 24g	.	.
.	32%3BB-	.	.	.	.	.
.	.	.	.	24a- 24cc	.	.
.	.	.	.	24d 24g	.	.
.	32%3A-J	.	.	.	.	.
.	.	.	.	24a- 24cc	.	.
.	.	.	.	24dJJ 24g	.	.
=86	=86	=86	=86	=86	=86	=86
8%9r	32%3e-X\L	8%9ryy	.	24cc-XLL 24ee-X\	4.gg/]	.
.	.	.	.	24f 24b-X	.	.
.	.	.	.	[24cc- [24ee-	.	.
.	32%3c-X	.	.	.	.	.
.	.	.	.	24cc-] 24ee-]	.	.
.	.	.	.	24f 24b-	.	.
.	32%3D-X	.	.	.	.	.
.	.	.	.	24cc- 24ee-	.	.
.	.	.	.	24f 24b-	.	.
.	32%3D-J	.	.	.	.	.
.	.	.	.	24cc- 24ee-	.	.
.	.	.	.	24fJJ 24b-	.	.
.	32%3DD-X/L	.	.	24re	4.gg/	.
.	.	.	.	24cc-LL 24ee-\	.	.
.	.	.	.	[24f [24b-	.	.
.	32%3D-	.	.	.	.	.
.	.	.	.	24f] 24b-]	.	.
.	.	.	.	24cc- 24ee-	.	.
.	32%3D-	.	.	.	.	.
.	.	.	.	24f 24b-	.	.
.	.	.	.	24cc- 24ee-	.	.
.	32%3c-J	.	.	.	.	.
.	.	.	.	24f 24b-	.	.
.	.	.	.	24cc-JJ 24ee-	.	.
.	4r	.	.	24re	4.aa-X/	.
.	.	.	.	24fLL 24b-\	.	.
.	.	.	.	[24cc- [24ee-	.	.
.	.	.	.	24cc-] 24ee-]	.	.
.	.	.	.	24f 24b-	.	.
.	.	.	.	24cc- 24ee-	.	.
.	8r	.	.	24f 24b-	.	.
.	.	.	.	24cc- 24ee-	.	.
.	.	.	.	24fJJ 24b-	.	.
=87	=87	=87	=87	=87	=87	=87
.	[8qGGG [8qGG\	.	.	.	.	.
8%9r	2.GGG_ 2.GG_ [2.F [2.Bn\	4.en/	.	4.an 4.bn 4.een 4.aan\	[2.bb/	.
.	.	8rc	.	24fLL 24a\	.	.
.	.	.	.	24B 24e	.	.
.	.	.	.	[24f [24a	.	.
.	.	[4c#X/	.	24f] 24a]	.	.
.	.	.	.	24B 24e	.	.
.	.	.	.	24f 24a	.	.
.	.	.	.	24B 24e	.	.
.	.	.	.	24f 24a	.	.
.	.	.	.	24BJJ 24e	.	.
.	4.GGG_ 4.GG_ 4.F_ 4.B\_	8c#/]	.	24eLL 24f\	4.bb/_	.
.	.	.	.	24a 24b	.	.
.	.	.	.	[24e [24f	.	.
.	.	[4c#/	.	24e] 24f]	.	.
.	.	.	.	24a 24b	.	.
.	.	.	.	24e 24f	.	.
.	.	.	.	24a 24b	.	.
.	.	.	.	24e 24f	.	.
.	.	.	.	24aJJ 24b	.	.
=88	=88	=88	=88	=88	=88	=88
8%9r	2.GGG_ 2.GG_ 2.F_ 2.B\_	2.c#/_	.	24bLL 24ee\	2.bb/]	.
.	.	.	.	24f 24a	.	.
.	.	.	.	24b 24ee	.	.
.	.	.	.	24f 24a	.	.
.	.	.	.	24b 24ee	.	.
.	.	.	.	24f 24a	.	.
.	.	.	.	24b 24ee	.	.
.	.	.	.	24f 24a	.	.
.	.	.	.	24bJJ 24ee	.	.
.	.	.	.	24aLL 24b\	.	.
.	.	.	.	24ee 24ff	.	.
.	.	.	.	24a 24b	.	.
.	.	.	.	24ee 24ff	.	.
.	.	.	.	24a 24b	.	.
.	.	.	.	24ee 24ff	.	.
.	.	.	.	24a 24b	.	.
.	.	.	.	24ee 24ff	.	.
.	.	.	.	24aJJ 24b	.	.
.	4.GGG] 4.GG] 4.F] 4.B\]	4.c#/]	.	24ffLL 24aa\	4rddd	.
.	.	.	.	24b 24ee	.	.
.	.	.	.	24ff 24aa	.	.
.	.	.	.	24b 24ee	.	.
.	.	.	.	24ff 24aa	.	.
.	.	.	.	24b 24ee	.	.
.	.	.	.	24ff 24aa	8rddd	.
.	.	.	.	24bJJ 24ee	.	.
.	.	.	.	24re	.	.
=89	=89	=89	=89	=89	=89	=89
8%9r	40%3r	8%9ryy	.	24fLL 24a\	4rff	.
.	.	.	.	24B 24e	.	.
.	40%3A\L	.	.	.	.	.
.	.	.	.	[24f [24a	.	.
.	.	.	.	24f] 24a]	.	.
.	40%3F	.	.	.	.	.
.	.	.	.	24B 24e	.	.
.	.	.	.	24f 24a	.	.
.	40%3GG	.	.	.	.	.
.	.	.	.	24B 24e	12rff	.
.	.	.	.	24fJJ 24a	.	.
.	40%3GGJ	.	.	.	.	.
.	.	.	.	24re	24ff/	.
.	32%3GGG/L	.	.	24re	[2.ee/	.
.	.	.	.	24fLL 24a\	.	.
.	.	.	.	[24B [24e	.	.
.	32%3GG	.	.	.	.	.
.	.	.	.	24B] 24e]	.	.
.	.	.	.	24f 24a	.	.
.	32%3GG	.	.	.	.	.
.	.	.	.	24B 24e	.	.
.	.	.	.	24f 24a	.	.
.	32%3FJ	.	.	.	.	.
.	.	.	.	24B 24e	.	.
.	.	.	.	[24fJJ [24a	.	.
.	32%3A\L	.	.	24fLL] 24a\]	.	.
.	.	.	.	24B 24e	.	.
.	.	.	.	[24f [24a	.	.
.	32%3F	.	.	.	.	.
.	.	.	.	24f] 24a]	.	.
.	.	.	.	24B 24e	.	.
.	32%3GG	.	.	.	.	.
.	.	.	.	24f 24a	.	.
.	.	.	.	24B 24e	.	.
.	32%3FJ	.	.	.	.	.
.	.	.	.	24f 24a	.	.
.	.	.	.	24BJJ 24e	.	.
=90	=90	=90	=90	=90	=90	=90
8%9r	40%3r	8%9ryy	.	24fLL 24a-X\	8ee/]	.
.	.	.	.	24B 24e	.	.
.	40%3A-X/L	.	.	.	.	.
.	.	.	.	[24f [24a-	.	.
.	.	.	.	24f] 24a-]	8rff	.
.	40%3F	.	.	.	.	.
.	.	.	.	24B 24e	.	.
.	.	.	.	24f 24a-	.	.
.	40%3AA-X	.	.	.	.	.
.	.	.	.	24B 24e	12rff	.
.	.	.	.	24fJJ 24a-	.	.
.	40%3CC#XJ	.	.	.	.	.
.	.	.	.	24re	24ff/	.
.	32%3CCC#X/L	.	.	24re	[2.ee/	.
.	.	.	.	24fLL 24a-\	.	.
.	.	.	.	[24B [24e	.	.
.	32%3CC#	.	.	.	.	.
.	.	.	.	24B] 24e]	.	.
.	.	.	.	24f 24a-	.	.
.	32%3AA-	.	.	.	.	.
.	.	.	.	24B 24e	.	.
.	.	.	.	24f 24a-	.	.
.	32%3FJ	.	.	.	.	.
.	.	.	.	24B 24e	.	.
.	.	.	.	[24fJJ [24a-	.	.
.	32%3A-\L	.	.	24fLL] 24a-\]	.	.
.	.	.	.	24B 24e	.	.
.	.	.	.	[24f [24a-	.	.
.	32%3F	.	.	.	.	.
.	.	.	.	24f] 24a-]	.	.
.	.	.	.	24B 24e	.	.
.	32%3AA-	.	.	.	.	.
.	.	.	.	24f 24a-	.	.
.	.	.	.	24B 24e	.	.
.	32%3FJ	.	.	.	.	.
.	.	.	.	24f 24a-	.	.
.	.	.	.	24BJJ 24e	.	.
=91	=91	=91	=91	=91	=91	=91
8%9r	40%3r	8%9ryy	.	24fLL 24an\	8ee/]	.
.	.	.	.	24B 24e	.	.
.	40%3An\L	.	.	.	.	.
.	.	.	.	[24f [24a	.	.
.	.	.	.	24f] 24a]	8rff	.
.	40%3F	.	.	.	.	.
.	.	.	.	24B 24e	.	.
.	.	.	.	24f 24a	.	.
.	40%3GG	.	.	.	.	.
.	.	.	.	24B 24e	12rff	.
.	.	.	.	24fJJ 24a	.	.
.	40%3GGJ	.	.	.	.	.
.	.	.	.	24re	24ff/	.
.	32%3GGG/L	.	.	24re	[2.ee/	.
.	.	.	.	24fLL 24a\	.	.
.	.	.	.	[24B [24e	.	.
.	32%3GG	.	.	.	.	.
.	.	.	.	24B] 24e]	.	.
.	.	.	.	24f 24a	.	.
.	32%3GG	.	.	.	.	.
.	.	.	.	24B 24e	.	.
.	.	.	.	24f 24a	.	.
.	32%3FJ	.	.	.	.	.
.	.	.	.	24B 24e	.	.
.	.	.	.	[24fJJ [24a	.	.
.	32%3A\L	.	.	24fLL] 24a\]	.	.
.	.	.	.	24B 24e	.	.
.	.	.	.	[24f [24a	.	.
.	32%3F	.	.	.	.	.
.	.	.	.	24f] 24a]	.	.
.	.	.	.	24B 24e	.	.
.	32%3GG	.	.	.	.	.
.	.	.	.	24f 24a	.	.
.	.	.	.	24B 24e	.	.
.	32%3FJ	.	.	.	.	.
.	.	.	.	24f 24a	.	.
.	.	.	.	24BJJ 24e	.	.
=92	=92	=92	=92	=92	=92	=92
8%9r	[2.BB-X [2.A-X [2.d\	4.rcc	.	24a-XLL 24cc\	4.ee/]	.
.	.	.	.	24d 24g	.	.
.	.	.	.	[24a- [24cc	.	.
.	.	.	.	24a-] 24cc]	.	.
.	.	.	.	24d 24g	.	.
.	.	.	.	24a- 24cc	.	.
.	.	.	.	24d 24g	.	.
.	.	.	.	24a- 24cc	.	.
.	.	.	.	24dJJ 24g	.	.
.	.	4.c/	.	24re	4.ee 4.ff/	.
.	.	.	.	24a-LL 24cc\	.	.
.	.	.	.	[24d [24g	.	.
.	.	.	.	24d] 24g]	.	.
.	.	.	.	24a- 24cc	.	.
.	.	.	.	24d 24g	.	.
.	.	.	.	24a- 24cc	.	.
.	.	.	.	24d 24g	.	.
.	.	.	.	24a-JJ 24cc	.	.
.	4.BB-] 4.A-] 4.d\]	4.F/	.	24re	4.ee 4.aa-X/	.
.	.	.	.	24dLL 24g\	.	.
.	.	.	.	[24a- [24cc	.	.
.	.	.	.	24a-] 24cc]	.	.
.	.	.	.	24d 24g	.	.
.	.	.	.	24a- 24cc	.	.
.	.	.	.	24d 24g	.	.
.	.	.	.	24a- 24cc	.	.
.	.	.	.	24dJJ 24g	.	.
=93	=93	=93	=93	=93	=93	=93
.	.	.	.	.	8qbn 8qff/	.
8%9r	4.GG 4.F 4.Bn\	8%9ryy	.	8re	8bbn/L	.
.	.	.	.	24fLL 24an\	8aan	.
.	.	.	.	24B 24e	.	.
.	.	.	.	24f 24a	.	.
.	.	.	.	24B 24e	8ffJ	.
.	.	.	.	24f 24a	.	.
.	.	.	.	24BJJ 24e	.	.
.	32%3r	.	.	24re	[2.ee/	.
.	.	.	.	24fLL 24a\	.	.
.	.	.	.	[24B [24e	.	.
.	32%3GGG/L	.	.	.	.	.
.	.	.	.	24B] 24e]	.	.
.	.	.	.	24f 24a	.	.
.	32%3GG	.	.	.	.	.
.	.	.	.	24B 24e	.	.
.	.	.	.	24f 24a	.	.
.	32%3FJ	.	.	.	.	.
.	.	.	.	24B 24e	.	.
.	.	.	.	[24fJJ [24a	.	.
.	32%3A\L	.	.	24fLL] 24a\]	.	.
.	.	.	.	24B 24e	.	.
.	.	.	.	[24f [24a	.	.
.	32%3F	.	.	.	.	.
.	.	.	.	24f] 24a]	.	.
.	.	.	.	24B 24e	.	.
.	32%3GG	.	.	.	.	.
.	.	.	.	24f 24a	.	.
.	.	.	.	24B 24e	.	.
.	32%3FJ	.	.	.	.	.
.	.	.	.	24f 24a	.	.
.	.	.	.	24BJJ 24e	.	.
=94	=94	=94	=94	=94	=94	=94
8%9r	32%3c\L	8%9ryy	.	24a-XLL 24cc\	4.ee/]	.
.	.	.	.	24d 24g	.	.
.	.	.	.	[24a- [24cc	.	.
.	32%3A-X	.	.	.	.	.
.	.	.	.	24a-] 24cc]	.	.
.	.	.	.	24d 24g	.	.
.	32%3BB-X	.	.	.	.	.
.	.	.	.	24a- 24cc	.	.
.	.	.	.	24d 24g	.	.
.	32%3BB-J	.	.	.	.	.
.	.	.	.	24a- 24cc	.	.
.	.	.	.	24dJJ 24g	.	.
.	32%3BBB-X/L	.	.	24re	4.ee/	.
.	.	.	.	24a-LL 24cc\	.	.
.	.	.	.	[24d [24g	.	.
.	32%3BB-	.	.	.	.	.
.	.	.	.	24d] 24g]	.	.
.	.	.	.	24a- 24cc	.	.
.	32%3BB-	.	.	.	.	.
.	.	.	.	24d 24g	.	.
.	.	.	.	24a- 24cc	.	.
.	32%3A-J	.	.	.	.	.
.	.	.	.	24d 24g	.	.
.	.	.	.	[24a-JJ [24cc	.	.
.	4r	.	.	24a-LL] 24cc\]	4.ff/	.
.	.	.	.	24d 24g	.	.
.	.	.	.	[24a- [24cc	.	.
.	.	.	.	24a-] 24cc]	.	.
.	.	.	.	24d 24g	.	.
.	.	.	.	24a- 24cc	.	.
.	8r	.	.	24d 24g	.	.
.	.	.	.	24a- 24cc	.	.
.	.	.	.	24dJJ 24g	.	.
=95	=95	=95	=95	=95	=95	=95
.	[8qEEE [8qEE\	.	.	.	.	.
8%9r	2.EEE_ 2.EE_ [2.BBn [2.G#X\	4.c#X/	.	4.f#X 4.g#X 4.cc#X 4.ff#X\	[2.gg#X/	.
.	.	8rA	.	24dLL 24f#\	.	.
.	.	.	.	24G#X 24c#X	.	.
.	.	.	.	[24d [24f#	.	.
.	.	[4A#X/	.	24d] 24f#]	.	.
.	.	.	.	24G# 24c#	.	.
.	.	.	.	24d 24f#	.	.
.	.	.	.	24G# 24c#	.	.
.	.	.	.	24d 24f#	.	.
.	.	.	.	24G#JJ 24c#	.	.
.	4.EEE_ 4.EE_ 4.BB_ 4.G#\_	8A#/]	.	24c#LL 24d\	4.gg#/_	.
.	.	.	.	24f# 24g#	.	.
.	.	.	.	[24c# [24d	.	.
.	.	[4A#/	.	24c#] 24d]	.	.
.	.	.	.	24f# 24g#	.	.
.	.	.	.	24c# 24d	.	.
.	.	.	.	24f# 24g#	.	.
.	.	.	.	24c# 24d	.	.
.	.	.	.	24f#JJ 24g#	.	.
=96	=96	=96	=96	=96	=96	=96
8%9r	2.EEE_ 2.EE_ 2.BB_ 2.G#\_	2.A#/_	.	24g#XLL 24cc#X\	2.gg#/]	.
.	.	.	.	24d 24f#X	.	.
.	.	.	.	24g# 24cc#	.	.
.	.	.	.	24d 24f#	.	.
.	.	.	.	24g# 24cc#	.	.
.	.	.	.	24d 24f#	.	.
.	.	.	.	24g# 24cc#	.	.
.	.	.	.	24d 24f#	.	.
.	.	.	.	24g#JJ 24cc#	.	.
.	.	.	.	24f#LL 24g#\	.	.
.	.	.	.	24cc# 24dd	.	.
.	.	.	.	24f# 24g#	.	.
.	.	.	.	24cc# 24dd	.	.
.	.	.	.	24f# 24g#	.	.
.	.	.	.	24cc# 24dd	.	.
.	.	.	.	24f# 24g#	.	.
.	.	.	.	24cc# 24dd	.	.
.	.	.	.	24f#JJ 24g#	.	.
.	4.EEE] 4.EE] 4.BB] 4.G#\]	4A#/]	.	24ddLL 24ff#X\	4rbb	.
.	.	.	.	24g# 24cc#	.	.
.	.	.	.	24dd 24ff#	.	.
.	.	.	.	24g# 24cc#	.	.
.	.	.	.	24dd 24ff#	.	.
.	.	.	.	24g#JJ 24cc#	.	.
.	.	8B/	.	8ra	8rbb	.
=97	=97	=97	=97	=97	=97	=97
8%9r	[2.DD [2.AA\	[2.F#X [2.cn/	.	4ryy	4r	.
.	.	.	.	8ryy	8r	.
*	*	*	*	*tremolo	*	*
.	.	.	.	32f#XLLL 32cc\	8ff#XL 8bb 8eee/	.
.	.	.	.	32g#X 32b	.	.
.	.	.	.	32f# 32cc	.	.
.	.	.	.	32g# 32b	.	.
.	.	.	.	32f# 32cc	8ff# 8bb 8eee	.
.	.	.	.	32g# 32b	.	.
.	.	.	.	32f# 32cc	.	.
.	.	.	.	32g# 32b	.	.
.	.	.	.	32f# 32cc	[8ff#J [8bb [8eee	.
.	.	.	.	32g# 32b	.	.
.	.	.	.	32f# 32cc	.	.
.	.	.	.	32g# 32b	.	.
.	4.DD_ 4.AA\_	4.F#_ 4.c/_	.	32f# 32cc	8ff#L] 8bb] 8eee/]	.
.	.	.	.	32g# 32b	.	.
.	.	.	.	32f# 32cc	.	.
.	.	.	.	32g# 32b	.	.
.	.	.	.	32f# 32cc	8ff# 8bb 8eee	.
.	.	.	.	32g# 32b	.	.
.	.	.	.	32f# 32cc	.	.
.	.	.	.	32g# 32b	.	.
.	.	.	.	32f# 32cc	8ff#J 8bb 8eee	.
.	.	.	.	32g# 32b	.	.
.	.	.	.	32f# 32cc	.	.
.	.	.	.	32g#JJJ 32b	.	.
*	*	*	*	*Xtremolo	*	*
=98	=98	=98	=98	=98	=98	=98
*	*	*	*	*tremolo	*	*
8%9r	2.DD_ 2.AA\_	2.F#_ 2.c/_	.	32f#XLLL 32cc\	4rgg	.
.	.	.	.	32g#X 32b	.	.
.	.	.	.	32f# 32cc	.	.
.	.	.	.	32g# 32b	.	.
.	.	.	.	32f# 32cc	.	.
.	.	.	.	32g# 32b	.	.
.	.	.	.	32f# 32cc	.	.
.	.	.	.	32g# 32b	.	.
.	.	.	.	32f# 32cc	8rgg	.
.	.	.	.	32g# 32b	.	.
.	.	.	.	32f# 32cc	.	.
.	.	.	.	32g# 32b	.	.
.	.	.	.	32f# 32cc	8ff#XL 8bb 8eee/	.
.	.	.	.	32g# 32b	.	.
.	.	.	.	32f# 32cc	.	.
.	.	.	.	32g# 32b	.	.
.	.	.	.	32f# 32cc	8ff# 8bb 8eee	.
.	.	.	.	32g# 32b	.	.
.	.	.	.	32f# 32cc	.	.
.	.	.	.	32g# 32b	.	.
.	.	.	.	32f# 32cc	[8ff#J [8bb [8eee	.
.	.	.	.	32g# 32b	.	.
.	.	.	.	32f# 32cc	.	.
.	.	.	.	32g#JJJ 32b	.	.
.	4.DD] 4.AA\]	4F#_ 4c/]	.	32f#LLL 32cc\	8ff#L] 8bb] 8eee/]	.
.	.	.	.	32g# 32b	.	.
.	.	.	.	32f# 32cc	.	.
.	.	.	.	32g# 32b	.	.
.	.	.	.	32f# 32cc	8ff#J 8bb 8eee	.
.	.	.	.	32g# 32b	.	.
.	.	.	.	32f# 32cc	.	.
.	.	.	.	32g#JJJ 32b	.	.
*	*	*	*	*Xtremolo	*	*
.	.	8F#] 8c/	.	8ryy	8r	.
*	*	*	*	*v	*v	*
=99	=99	=99	=99	=99	=99
8%9r	[2.EE [2.BB [2.G#X\	4.c#X/	.	4r	.
.	.	.	.	8r	.
.	.	8rA	.	24dLL 24f#X/	.
.	.	.	.	24G#X 24c#X	.
.	.	.	.	[24d [24f#	.
.	.	[4A#X/	.	24d] 24f#]	.
.	.	.	.	24G# 24c#	.
.	.	.	.	24d 24f#	.
.	.	.	.	24G# 24c#	.
.	.	.	.	24d 24f#	.
.	.	.	.	24G#JJ 24c#	.
.	4.EE_ 4.BB_ 4.G#\_	8A#/]	.	24c#LL 24d/	.
.	.	.	.	24f# 24g#X	.
.	.	.	.	[24c# [24d	.
.	.	[4A#/	.	24c#] 24d]	.
.	.	.	.	24f# 24g#	.
.	.	.	.	24c# 24d	.
.	.	.	.	24f# 24g#	.
.	.	.	.	24c# 24d	.
.	.	.	.	24f#JJ 24g#	.
=100	=100	=100	=100	=100	=100
8%9r	2.EE_ 2.BB_ 2.G#\_	2.A#/_	.	24g#XLL 24cc#X/	.
.	.	.	.	24d 24f#X	.
.	.	.	.	24g# 24cc#	.
.	.	.	.	24d 24f#	.
.	.	.	.	24g# 24cc#	.
.	.	.	.	24d 24f#	.
.	.	.	.	24g# 24cc#	.
.	.	.	.	24d 24f#	.
.	.	.	.	24g#JJ 24cc#	.
.	.	.	.	24f#LL 24g#/	.
.	.	.	.	24cc# 24dd	.
.	.	.	.	24f# 24g#	.
.	.	.	.	24cc# 24dd	.
.	.	.	.	24f# 24g#	.
.	.	.	.	24cc# 24dd	.
.	.	.	.	24f# 24g#	.
.	.	.	.	24cc# 24dd	.
.	.	.	.	24f#JJ 24g#	.
.	4.EE] 4.BB] 4.G#\]	4A#/]	.	24ddLL 24ff#X\	.
.	.	.	.	24g# 24cc#	.
.	.	.	.	24dd 24ff#	.
.	.	.	.	24g# 24cc#	.
.	.	.	.	24dd 24ff#	.
.	.	.	.	24g#JJ 24cc#	.
.	.	8B/	.	8r	.
=101	=101	=101	=101	=101	=101
*	*	*	*	*^	*
8%9r	[2.DD [2.AA\	[2.F#X [2.cn/	.	4ryy	4r	.
.	.	.	.	8ryy	8r	.
*	*	*	*	*tremolo	*	*
.	.	.	.	32f#XLLL 32cc\	8ff#XL 8bb 8eee/	.
.	.	.	.	32g#X 32b	.	.
.	.	.	.	32f# 32cc	.	.
.	.	.	.	32g# 32b	.	.
.	.	.	.	32f# 32cc	8ff# 8bb 8eee	.
.	.	.	.	32g# 32b	.	.
.	.	.	.	32f# 32cc	.	.
.	.	.	.	32g# 32b	.	.
.	.	.	.	32f# 32cc	[8ff#J [8bb [8eee	.
.	.	.	.	32g# 32b	.	.
.	.	.	.	32f# 32cc	.	.
.	.	.	.	32g# 32b	.	.
.	4.DD_ 4.AA\_	4.F#_ 4.c/_	.	32f# 32cc	8ff#L] 8bb] 8eee/]	.
.	.	.	.	32g# 32b	.	.
.	.	.	.	32f# 32cc	.	.
.	.	.	.	32g# 32b	.	.
.	.	.	.	32f# 32cc	8ff# 8bb 8eee	.
.	.	.	.	32g# 32b	.	.
.	.	.	.	32f# 32cc	.	.
.	.	.	.	32g# 32b	.	.
.	.	.	.	32f# 32cc	8ff#J 8bb 8eee	.
.	.	.	.	32g# 32b	.	.
.	.	.	.	32f# 32cc	.	.
.	.	.	.	32g#JJJ 32b	.	.
*	*	*	*	*Xtremolo	*	*
=102	=102	=102	=102	=102	=102	=102
*	*	*	*	*tremolo	*	*
8%9r	2.DD_ 2.AA\_	2.F#_ 2.c/_	.	32f#XLLL 32cc\	4rgg	.
.	.	.	.	32g#X 32b	.	.
.	.	.	.	32f# 32cc	.	.
.	.	.	.	32g# 32b	.	.
.	.	.	.	32f# 32cc	.	.
.	.	.	.	32g# 32b	.	.
.	.	.	.	32f# 32cc	.	.
.	.	.	.	32g# 32b	.	.
.	.	.	.	32f# 32cc	8rgg	.
.	.	.	.	32g# 32b	.	.
.	.	.	.	32f# 32cc	.	.
.	.	.	.	32g# 32b	.	.
.	.	.	.	32f# 32cc	8ff#XL 8bb 8eee/	.
.	.	.	.	32g# 32b	.	.
.	.	.	.	32f# 32cc	.	.
.	.	.	.	32g# 32b	.	.
.	.	.	.	32f# 32cc	8ff# 8bb 8eee	.
.	.	.	.	32g# 32b	.	.
.	.	.	.	32f# 32cc	.	.
.	.	.	.	32g# 32b	.	.
.	.	.	.	32f# 32cc	[8ff#J [8bb [8eee	.
.	.	.	.	32g# 32b	.	.
.	.	.	.	32f# 32cc	.	.
.	.	.	.	32g#JJJ 32b	.	.
.	4.DD] 4.AA\]	4F#_ 4c/]	.	32f#LLL 32cc\	8ff#L] 8bb] 8eee/]	.
.	.	.	.	32g# 32b	.	.
.	.	.	.	32f# 32cc	.	.
.	.	.	.	32g# 32b	.	.
.	.	.	.	32f# 32cc	8ff#J 8bb 8eee	.
.	.	.	.	32g# 32b	.	.
.	.	.	.	32f# 32cc	.	.
.	.	.	.	32g#JJJ 32b	.	.
*	*	*	*	*Xtremolo	*	*
.	.	8F#] 8c/	.	8ryy	8r	.
*	*	*	*	*v	*v	*
=103	=103	=103	=103	=103	=103
8%9r	[2.EE [2.BB [2.G#X\	4.c#X/	.	4r	.
.	.	.	.	8r	.
.	.	8rA	.	24dLL 24f#X/	.
.	.	.	.	24G#X 24c#X	.
.	.	.	.	[24d [24f#	.
.	.	[4A#X/	.	24d] 24f#]	.
.	.	.	.	24G# 24c#	.
.	.	.	.	24d 24f#	.
.	.	.	.	24G# 24c#	.
.	.	.	.	24d 24f#	.
.	.	.	.	24G#JJ 24c#	.
.	4.EE_ 4.BB_ 4.G#\_	8A#/]	.	24c#LL 24d/	.
.	.	.	.	24f# 24g#X	.
.	.	.	.	[24c# [24d	.
.	.	[4A#/	.	24c#] 24d]	.
.	.	.	.	24f# 24g#	.
.	.	.	.	24c# 24d	.
.	.	.	.	24f# 24g#	.
.	.	.	.	24c# 24d	.
.	.	.	.	24f#JJ 24g#	.
=104	=104	=104	=104	=104	=104
8%9r	2.EE_ 2.BB_ 2.G#\_	2.A#/_	.	24g#XLL 24cc#X/	.
.	.	.	.	24d 24f#X	.
.	.	.	.	24g# 24cc#	.
.	.	.	.	24d 24f#	.
.	.	.	.	24g# 24cc#	.
.	.	.	.	24d 24f#	.
.	.	.	.	24g# 24cc#	.
.	.	.	.	24d 24f#	.
.	.	.	.	24g#JJ 24cc#	.
.	.	.	.	24f#LL 24g#/	.
.	.	.	.	24cc# 24dd	.
.	.	.	.	24f# 24g#	.
.	.	.	.	24cc# 24dd	.
.	.	.	.	24f# 24g#	.
.	.	.	.	24cc# 24dd	.
.	.	.	.	24f# 24g#	.
.	.	.	.	24cc# 24dd	.
.	.	.	.	24f#JJ 24g#	.
.	4.EE] 4.BB] 4.G#\]	4.A#/]	.	24ddLL 24ff#X\	.
.	.	.	.	24g# 24cc#	.
.	.	.	.	24dd 24ff#	.
.	.	.	.	24g# 24cc#	.
.	.	.	.	24dd 24ff#	.
.	.	.	.	24g# 24cc#	.
.	.	.	.	24dd 24ff#	.
.	.	.	.	24g# 24cc#	.
.	.	.	.	24ddJJ 24ff#	.
=105	=105	=105	=105	=105	=105
8%9r	[2.EE [2.BB [2.G#X\	4rc	.	4r	.
.	.	8rA	.	8r	.
.	.	8rA	.	24f#XLL 24g#X/	.
.	.	.	.	24c#X 24d	.
.	.	.	.	[24f# [24g#	.
.	.	[4A#X/	.	24f#] 24g#]	.
.	.	.	.	24c# 24d	.
.	.	.	.	24f# 24g#	.
.	.	.	.	24c# 24d	.
.	.	.	.	24f# 24g#	.
.	.	.	.	24c#JJ 24d	.
.	4.EE_ 4.BB_ 4.G#\_	8A#/]	.	24dLL 24f#/	.
.	.	.	.	24g# 24cc#X	.
.	.	.	.	[24d [24f#	.
.	.	[4A#/	.	24d] 24f#]	.
.	.	.	.	24g# 24cc#	.
.	.	.	.	24d 24f#	.
.	.	.	.	24g# 24cc#	.
.	.	.	.	24d 24f#	.
.	.	.	.	24g#JJ 24cc#	.
=106	=106	=106	=106	=106	=106
8%9r	2.EE_ 2.BB_ 2.G#\_	2.A#/_	.	24cc#XLL 24dd/	.
.	.	.	.	24f#X 24g#X	.
.	.	.	.	24cc# 24dd	.
.	.	.	.	24f# 24g#	.
.	.	.	.	24cc# 24dd	.
.	.	.	.	24f# 24g#	.
.	.	.	.	24cc# 24dd	.
.	.	.	.	24f# 24g#	.
.	.	.	.	24cc#JJ 24dd	.
.	.	.	.	24g#LL 24cc#\	.
.	.	.	.	24dd 24ff#X	.
.	.	.	.	24g# 24cc#	.
.	.	.	.	24dd 24ff#	.
.	.	.	.	24g# 24cc#	.
.	.	.	.	24dd 24ff#	.
.	.	.	.	24g# 24cc#	.
.	.	.	.	24dd 24ff#	.
.	.	.	.	24g#JJ 24cc#	.
.	4.EE] 4.BB] 4.G#\]	4A#/]	.	24ff#LL 24gg#X\	.
.	.	.	.	24cc# 24dd	.
.	.	.	.	24ff# 24gg#	.
.	.	.	.	24cc# 24dd	.
.	.	.	.	24ff# 24gg#	.
.	.	.	.	24cc# 24dd	.
.	.	8c#X/	.	24ff# 24gg#	.
.	.	.	.	24cc# 24dd	.
.	.	.	.	24ff#JJ 24gg#	.
=107	=107	=107	=107	=107	=107
*	*	*	*	*^	*
8%9r	[2.EE [2.BB\	[2.G#X [2.d/	.	4ryy	4r	.
.	.	.	.	8ryy	8r	.
*	*	*	*	*tremolo	*	*
.	.	.	.	32g#XLLL 32dd\	8gg#XL 8ccc#X 8fff#X/	.
.	.	.	.	32a#X 32cc#X	.	.
.	.	.	.	32g# 32dd	.	.
.	.	.	.	32a# 32cc#	.	.
.	.	.	.	32g# 32dd	8gg# 8ccc# 8fff#	.
.	.	.	.	32a# 32cc#	.	.
.	.	.	.	32g# 32dd	.	.
.	.	.	.	32a# 32cc#	.	.
.	.	.	.	32g# 32dd	[8gg#J [8ccc# [8fff#	.
.	.	.	.	32a# 32cc#	.	.
.	.	.	.	32g# 32dd	.	.
.	.	.	.	32a#JJJ 32cc#	.	.
.	4.EE] 4.BB\]	4G#] 4d/]	.	32g#LLL 32dd\	8gg#L] 8ccc#] 8fff#/]	.
.	.	.	.	32a# 32cc#	.	.
.	.	.	.	32g# 32dd	.	.
.	.	.	.	32a# 32cc#	.	.
.	.	.	.	32g# 32dd	8gg#J 8ccc# 8fff#	.
.	.	.	.	32a# 32cc#	.	.
.	.	.	.	32g# 32dd	.	.
.	.	.	.	32a#JJJ 32cc#	.	.
*	*	*	*	*Xtremolo	*	*
.	.	16rc	.	8ryy	8r	.
.	.	16A#X 16c#X/	.	.	.	.
=108	=108	=108	=108	=108	=108	=108
8%9r	[2.EE [2.BB\	[2.G#X [2.d/	.	4ryy	4r	.
.	.	.	.	8ryy	8r	.
*	*	*	*	*tremolo	*	*
.	.	.	.	32g#XLLL 32dd\	8gg#XL 8ccc#X 8fff#X/	.
.	.	.	.	32a#X 32cc#X	.	.
.	.	.	.	32g# 32dd	.	.
.	.	.	.	32a# 32cc#	.	.
.	.	.	.	32g# 32dd	8gg# 8ccc# 8fff#	.
.	.	.	.	32a# 32cc#	.	.
.	.	.	.	32g# 32dd	.	.
.	.	.	.	32a# 32cc#	.	.
.	.	.	.	32g# 32dd	[8gg#J [8ccc# [8fff#	.
.	.	.	.	32a# 32cc#	.	.
.	.	.	.	32g# 32dd	.	.
.	.	.	.	32a#JJJ 32cc#	.	.
.	4.EE_ 4.BB\_	4.G#_ 4.d/_	.	32g#LLL 32dd\	8gg#L] 8ccc#] 8fff#/]	.
.	.	.	.	32a# 32cc#	.	.
.	.	.	.	32g# 32dd	.	.
.	.	.	.	32a# 32cc#	.	.
.	.	.	.	32g# 32dd	8gg# 8ccc# 8fff#	.
.	.	.	.	32a# 32cc#	.	.
.	.	.	.	32g# 32dd	.	.
.	.	.	.	32a# 32cc#	.	.
.	.	.	.	32g# 32dd	8gg#J 8ccc# 8fff#	.
.	.	.	.	32a# 32cc#	.	.
.	.	.	.	32g# 32dd	.	.
.	.	.	.	32a#JJJ 32cc#	.	.
*	*	*	*	*Xtremolo	*	*
=109	=109	=109	=109	=109	=109	=109
*	*	*	*	*tremolo	*	*
8%9r	2.EE_ 2.BB\_	8G#L] 8d/]	.	32g#XLLL 32dd\	4ryy	.
.	.	.	.	32a#X 32cc#X	.	.
.	.	.	.	32g# 32dd	.	.
.	.	.	.	32a# 32cc#	.	.
.	.	8A#X 8c#X	.	32g# 32dd	.	.
.	.	.	.	32a# 32cc#	.	.
.	.	.	.	32g# 32dd	.	.
.	.	.	.	32a# 32cc#	.	.
.	.	8G#XJ 8d	.	32g# 32dd	8ryy	.
.	.	.	.	32a# 32cc#	.	.
.	.	.	.	32g# 32dd	.	.
.	.	.	.	32a# 32cc#	.	.
.	.	8A# 8f#X/	.	32g# 32dd	4ryy	.
.	.	.	.	32a# 32cc#	.	.
.	.	.	.	32g# 32dd	.	.
.	.	.	.	32a# 32cc#	.	.
.	.	[4G# [4c#/	.	32g# 32dd	.	.
.	.	.	.	32a# 32cc#	.	.
.	.	.	.	32g# 32dd	.	.
.	.	.	.	32a# 32cc#	.	.
.	.	.	.	32g# 32dd	8ryy	.
.	.	.	.	32a# 32cc#	.	.
.	.	.	.	32g# 32dd	.	.
.	.	.	.	32a#JJJ 32cc#	.	.
.	4.EE] 4.BB\]	4G#] 4c#/]	.	32g#LLL 32dd\	4ryy	.
.	.	.	.	32a# 32cc#	.	.
.	.	.	.	32g# 32dd	.	.
.	.	.	.	32a# 32cc#	.	.
.	.	.	.	32g# 32dd	.	.
.	.	.	.	32a# 32cc#	.	.
.	.	.	.	32g# 32dd	.	.
.	.	.	.	32a# 32cc#	.	.
.	.	8F#X 8A#/	.	32g# 32dd	8ryy	.
.	.	.	.	32a# 32cc#	.	.
.	.	.	.	32g# 32dd	.	.
.	.	.	.	32a#JJJ 32cc#	.	.
*	*	*	*	*Xtremolo	*	*
=110	=110	=110	=110	=110	=110	=110
*	*	*	*	*tremolo	*	*
8%9r	[2.EE [2.BB\	8G#XL 8d/	.	32g#XLLL 32dd\	4ryy	.
.	.	.	.	32a#X 32cc#X	.	.
.	.	.	.	32g# 32dd	.	.
.	.	.	.	32a# 32cc#	.	.
.	.	8A#X 8c#X	.	32g# 32dd	.	.
.	.	.	.	32a# 32cc#	.	.
.	.	.	.	32g# 32dd	.	.
.	.	.	.	32a# 32cc#	.	.
.	.	8G#J 8d	.	32g# 32dd	8ryy	.
.	.	.	.	32a# 32cc#	.	.
.	.	.	.	32g# 32dd	.	.
.	.	.	.	32a# 32cc#	.	.
.	.	8A#L 8f#X/	.	32g# 32dd	4ryy	.
.	.	.	.	32a# 32cc#	.	.
.	.	.	.	32g# 32dd	.	.
.	.	.	.	32a# 32cc#	.	.
.	.	8G# 8c#	.	32g# 32dd	.	.
.	.	.	.	32a# 32cc#	.	.
.	.	.	.	32g# 32dd	.	.
.	.	.	.	32a# 32cc#	.	.
.	.	8F#XJ 8A#	.	32g# 32dd	8ryy	.
.	.	.	.	32a# 32cc#	.	.
.	.	.	.	32g# 32dd	.	.
.	.	.	.	32a#JJJ 32cc#	.	.
.	4.EE] 4.BB\]	8G#L 8d/	.	32g#LLL 32dd\	4ryy	.
.	.	.	.	32a# 32cc#	.	.
.	.	.	.	32g# 32dd	.	.
.	.	.	.	32a# 32cc#	.	.
.	.	8A# 8c#	.	32g# 32dd	.	.
.	.	.	.	32a# 32cc#	.	.
.	.	.	.	32g# 32dd	.	.
.	.	.	.	32a#JJJ 32cc#	.	.
*	*	*	*	*Xtremolo	*	*
.	.	8G#J 8d	.	8r	8ryy	.
=111	=111	=111	=111	=111	=111	=111
8%9r	[2.GG [2.D\	8A#X 8f#X/	.	4ryy	4r	.
.	.	[4B [4fn/	.	.	.	.
.	.	.	.	8ryy	8r	.
*	*	*	*	*tremolo	*	*
.	.	2.B_ 2.f/_	.	32bLLL 32ff\	8bbL 8eee 8aaa/	.
.	.	.	.	32cc#X 32ee	.	.
.	.	.	.	32b 32ff	.	.
.	.	.	.	32cc# 32ee	.	.
.	.	.	.	32b 32ff	8bb 8eee 8aaa	.
.	.	.	.	32cc# 32ee	.	.
.	.	.	.	32b 32ff	.	.
.	.	.	.	32cc# 32ee	.	.
.	.	.	.	32b 32ff	[8bbJ [8eee [8aaa	.
.	.	.	.	32cc# 32ee	.	.
.	.	.	.	32b 32ff	.	.
.	.	.	.	32cc#JJJ 32ee	.	.
.	4.GG_ 4.D\_	.	.	32bLLL 32ff\	8bbL] 8eee] 8aaa/]	.
.	.	.	.	32cc# 32ee	.	.
.	.	.	.	32b 32ff	.	.
.	.	.	.	32cc# 32ee	.	.
.	.	.	.	32b 32ff	8bb 8eee 8aaa	.
.	.	.	.	32cc# 32ee	.	.
.	.	.	.	32b 32ff	.	.
.	.	.	.	32cc# 32ee	.	.
.	.	.	.	32b 32ff	[8bbJ [8eee [8aaa	.
.	.	.	.	32cc# 32ee	.	.
.	.	.	.	32b 32ff	.	.
.	.	.	.	32cc#JJJ 32ee	.	.
*	*	*	*	*Xtremolo	*	*
=112	=112	=112	=112	=112	=112	=112
*	*	*	*	*tremolo	*	*
8%9r	2.GG_ 2.D\_	2.B_ 2.f/_	.	32bLLL 32ff\	4.bb] 4.eee] 4.aaa/]	.
.	.	.	.	32cc#X 32ee	.	.
.	.	.	.	32b 32ff	.	.
.	.	.	.	32cc# 32ee	.	.
.	.	.	.	32b 32ff	.	.
.	.	.	.	32cc# 32ee	.	.
.	.	.	.	32b 32ff	.	.
.	.	.	.	32cc# 32ee	.	.
.	.	.	.	32b 32ff	.	.
.	.	.	.	32cc# 32ee	.	.
.	.	.	.	32b 32ff	.	.
.	.	.	.	32cc# 32ee	.	.
.	.	.	.	32b 32ff	8bbL 8eee 8aaa/	.
.	.	.	.	32cc# 32ee	.	.
.	.	.	.	32b 32ff	.	.
.	.	.	.	32cc# 32ee	.	.
.	.	.	.	32b 32ff	8bb 8eee 8aaa	.
.	.	.	.	32cc# 32ee	.	.
.	.	.	.	32b 32ff	.	.
.	.	.	.	32cc# 32ee	.	.
.	.	.	.	32b 32ff	[8bbJ [8eee [8aaa	.
.	.	.	.	32cc# 32ee	.	.
.	.	.	.	32b 32ff	.	.
.	.	.	.	32cc#JJJ 32ee	.	.
.	4.GG] 4.D\]	4B] 4f/]	.	32bLLL 32ff\	8bbL] 8eee] 8aaa/]	.
.	.	.	.	32cc# 32ee	.	.
.	.	.	.	32b 32ff	.	.
.	.	.	.	32cc# 32ee	.	.
.	.	.	.	32b 32ff	8bbJ 8eee 8aaa	.
.	.	.	.	32cc# 32ee	.	.
.	.	.	.	32b 32ff	.	.
.	.	.	.	32cc#JJJ 32ee	.	.
*	*	*	*	*Xtremolo	*	*
.	.	16rA	.	8ryy	8r	.
.	.	16c#X 16e/	.	.	.	.
=113	=113	=113	=113	=113	=113	=113
8%9r	[2.GG [2.D\	[2.B [2.f/	.	4ryy	4r	.
.	.	.	.	8ryy	8r	.
*	*	*	*	*tremolo	*	*
.	.	.	.	32bLLL 32ff\	8bbL 8eee 8aaa/	.
.	.	.	.	32cc#X 32ee	.	.
.	.	.	.	32b 32ff	.	.
.	.	.	.	32cc# 32ee	.	.
.	.	.	.	32b 32ff	8bb 8eee 8aaa	.
.	.	.	.	32cc# 32ee	.	.
.	.	.	.	32b 32ff	.	.
.	.	.	.	32cc# 32ee	.	.
.	.	.	.	32b 32ff	[8bbJ [8eee [8aaa	.
.	.	.	.	32cc# 32ee	.	.
.	.	.	.	32b 32ff	.	.
.	.	.	.	32cc#JJJ 32ee	.	.
.	4.GG] 4.D\]	4B] 4f/]	.	32bLLL 32ff\	8bbL] 8eee] 8aaa/]	.
.	.	.	.	32cc# 32ee	.	.
.	.	.	.	32b 32ff	.	.
.	.	.	.	32cc# 32ee	.	.
.	.	.	.	32b 32ff	8bbJ 8eee 8aaa	.
.	.	.	.	32cc# 32ee	.	.
.	.	.	.	32b 32ff	.	.
.	.	.	.	32cc#JJJ 32ee	.	.
*	*	*	*	*Xtremolo	*	*
.	.	16rA	.	8ryy	8r	.
.	.	16c#X 16e/	.	.	.	.
=114	=114	=114	=114	=114	=114	=114
8%9r	[2.GG [2.D\	[2.B [2.f/	.	4ryy	4r	.
.	.	.	.	8ryy	8r	.
*	*	*	*	*tremolo	*	*
.	.	.	.	32bLLL 32ff\	8bbL 8eee 8aaa/	.
.	.	.	.	32cc#X 32ee	.	.
.	.	.	.	32b 32ff	.	.
.	.	.	.	32cc# 32ee	.	.
.	.	.	.	32b 32ff	8bb 8eee 8aaa	.
.	.	.	.	32cc# 32ee	.	.
.	.	.	.	32b 32ff	.	.
.	.	.	.	32cc# 32ee	.	.
.	.	.	.	32b 32ff	[8bbJ [8eee [8aaa	.
.	.	.	.	32cc# 32ee	.	.
.	.	.	.	32b 32ff	.	.
.	.	.	.	32cc#JJJ 32ee	.	.
.	4.GG_ 4.D\_	4.B_ 4.f/_	.	32bLLL 32ff\	8bbL] 8eee] 8aaa/]	.
.	.	.	.	32cc# 32ee	.	.
.	.	.	.	32b 32ff	.	.
.	.	.	.	32cc# 32ee	.	.
.	.	.	.	32b 32ff	8bb 8eee 8aaa	.
.	.	.	.	32cc# 32ee	.	.
.	.	.	.	32b 32ff	.	.
.	.	.	.	32cc# 32ee	.	.
.	.	.	.	32b 32ff	8bbJ 8eee 8aaa	.
.	.	.	.	32cc# 32ee	.	.
.	.	.	.	32b 32ff	.	.
.	.	.	.	32cc#JJJ 32ee	.	.
*	*	*	*	*Xtremolo	*	*
=115	=115	=115	=115	=115	=115	=115
*	*	*	*	*tremolo	*	*
8%9r	2.GG_ 2.D\_	8BL] 8f/]	.	32bLLL 32ff\	4ryy	.
.	.	.	.	32cc#X 32ee	.	.
.	.	.	.	32b 32ff	.	.
.	.	.	.	32cc# 32ee	.	.
.	.	8c#X 8e	.	32b 32ff	.	.
.	.	.	.	32cc# 32ee	.	.
.	.	.	.	32b 32ff	.	.
.	.	.	.	32cc# 32ee	.	.
.	.	8BJ 8f	.	32b 32ff	8ryy	.
.	.	.	.	32cc# 32ee	.	.
.	.	.	.	32b 32ff	.	.
.	.	.	.	32cc# 32ee	.	.
.	.	8c# 8a/	.	32b 32ff	4ryy	.
.	.	.	.	32cc# 32ee	.	.
.	.	.	.	32b 32ff	.	.
.	.	.	.	32cc# 32ee	.	.
.	.	[4B [4e/	.	32b 32ff	.	.
.	.	.	.	32cc# 32ee	.	.
.	.	.	.	32b 32ff	.	.
.	.	.	.	32cc# 32ee	.	.
.	.	.	.	32b 32ff	8ryy	.
.	.	.	.	32cc# 32ee	.	.
.	.	.	.	32b 32ff	.	.
.	.	.	.	32cc#JJJ 32ee	.	.
.	4.GG] 4.D\]	4B] 4e/]	.	32bLLL 32ff\	4ryy	.
.	.	.	.	32cc# 32ee	.	.
.	.	.	.	32b 32ff	.	.
.	.	.	.	32cc# 32ee	.	.
.	.	.	.	32b 32ff	.	.
.	.	.	.	32cc# 32ee	.	.
.	.	.	.	32b 32ff	.	.
.	.	.	.	32cc# 32ee	.	.
.	.	8A 8c#/	.	32b 32ff	8ryy	.
.	.	.	.	32cc# 32ee	.	.
.	.	.	.	32b 32ff	.	.
.	.	.	.	32cc#JJJ 32ee	.	.
*	*	*	*	*Xtremolo	*	*
=116	=116	=116	=116	=116	=116	=116
*	*	*	*	*tremolo	*	*
8%9r	[2.GG [2.D\	8BL 8f/	.	32bLLL 32ff\	4ryy	.
.	.	.	.	32cc#X 32ee	.	.
.	.	.	.	32b 32ff	.	.
.	.	.	.	32cc# 32ee	.	.
.	.	8c#X 8e	.	32b 32ff	.	.
.	.	.	.	32cc# 32ee	.	.
.	.	.	.	32b 32ff	.	.
.	.	.	.	32cc# 32ee	.	.
.	.	8BJ 8f	.	32b 32ff	8ryy	.
.	.	.	.	32cc# 32ee	.	.
.	.	.	.	32b 32ff	.	.
.	.	.	.	32cc# 32ee	.	.
.	.	8c#L 8a/	.	32b 32ff	4ryy	.
.	.	.	.	32cc# 32ee	.	.
.	.	.	.	32b 32ff	.	.
.	.	.	.	32cc# 32ee	.	.
.	.	8B 8e	.	32b 32ff	.	.
.	.	.	.	32cc# 32ee	.	.
.	.	.	.	32b 32ff	.	.
.	.	.	.	32cc# 32ee	.	.
.	.	8AJ 8c#	.	32b 32ff	8ryy	.
.	.	.	.	32cc# 32ee	.	.
.	.	.	.	32b 32ff	.	.
.	.	.	.	32cc#JJJ 32ee	.	.
.	4.GG] 4.D\]	8BL 8f/	.	32bLLL 32ff\	4ryy	.
.	.	.	.	32cc# 32ee	.	.
.	.	.	.	32b 32ff	.	.
.	.	.	.	32cc# 32ee	.	.
.	.	8c# 8e	.	32b 32ff	.	.
.	.	.	.	32cc# 32ee	.	.
.	.	.	.	32b 32ff	.	.
.	.	.	.	32cc# 32ee	.	.
.	.	8BJ 8f	.	32b 32ff	8ryy	.
.	.	.	.	32cc# 32ee	.	.
.	.	.	.	32b 32ff	.	.
.	.	.	.	32cc#JJJ 32ee	.	.
*	*	*	*	*Xtremolo	*	*
=117	=117	=117	=117	=117	=117	=117
8%9r	[2.BB-X [2.F\	8c#X 8a/	.	4ryy	4r	.
.	.	[4d [4a-X/	.	.	.	.
.	.	.	.	8ryy	8r	.
*	*	*	*	*8va	*8va	*
*	*	*	*	*tremolo	*	*
.	.	2.d_ 2.a-/_	.	32ddLLL 32aa-X\	8dddL 8ggg 8ccccn/	.
.	.	.	.	32ee 32gg	.	.
.	.	.	.	32dd 32aa-	.	.
.	.	.	.	32ee 32gg	.	.
.	.	.	.	32dd 32aa-	8ddd 8ggg 8cccc	.
.	.	.	.	32ee 32gg	.	.
.	.	.	.	32dd 32aa-	.	.
.	.	.	.	32ee 32gg	.	.
.	.	.	.	32dd 32aa-	[8dddJ [8ggg [8cccc	.
.	.	.	.	32ee 32gg	.	.
.	.	.	.	32dd 32aa-	.	.
.	.	.	.	32ee 32gg	.	.
.	4.BB-_ 4.F\_	.	.	32dd 32aa-	8dddL] 8ggg] 8cccc/]	.
.	.	.	.	32ee 32gg	.	.
.	.	.	.	32dd 32aa-	.	.
.	.	.	.	32ee 32gg	.	.
.	.	.	.	32dd 32aa-	8ddd 8ggg 8cccc	.
.	.	.	.	32ee 32gg	.	.
.	.	.	.	32dd 32aa-	.	.
.	.	.	.	32ee 32gg	.	.
.	.	.	.	32dd 32aa-	[8dddJ [8ggg [8cccc	.
.	.	.	.	32ee 32gg	.	.
.	.	.	.	32dd 32aa-	.	.
.	.	.	.	32eeJJJ 32gg	.	.
*	*	*	*	*Xtremolo	*	*
=118	=118	=118	=118	=118	=118	=118
*	*	*	*	*tremolo	*	*
8%9r	2.BB-_ 2.F\_	2.d_ 2.a-/_	.	32ddLLL 32aa-X\	4.ddd] 4.ggg] 4.cccc/]	.
.	.	.	.	32ee 32gg	.	.
.	.	.	.	32dd 32aa-	.	.
.	.	.	.	32ee 32gg	.	.
.	.	.	.	32dd 32aa-	.	.
.	.	.	.	32ee 32gg	.	.
.	.	.	.	32dd 32aa-	.	.
.	.	.	.	32ee 32gg	.	.
.	.	.	.	32dd 32aa-	.	.
.	.	.	.	32ee 32gg	.	.
.	.	.	.	32dd 32aa-	.	.
.	.	.	.	32ee 32gg	.	.
.	.	.	.	32dd 32aa-	8dddL 8ggg 8cccc/	.
.	.	.	.	32ee 32gg	.	.
.	.	.	.	32dd 32aa-	.	.
.	.	.	.	32ee 32gg	.	.
.	.	.	.	32dd 32aa-	8ddd 8ggg 8cccc	.
.	.	.	.	32ee 32gg	.	.
.	.	.	.	32dd 32aa-	.	.
.	.	.	.	32ee 32gg	.	.
.	.	.	.	32dd 32aa-	[8dddJ [8ggg [8cccc	.
.	.	.	.	32ee 32gg	.	.
.	.	.	.	32dd 32aa-	.	.
.	.	.	.	32eeJJJ 32gg	.	.
.	4.BB-] 4.F\]	4.d_ 4.a-/_	.	32ddLLL 32aa-\	8dddL] 8ggg] 8cccc/]	.
.	.	.	.	32ee 32gg	.	.
.	.	.	.	32dd 32aa-	.	.
.	.	.	.	32ee 32gg	.	.
.	.	.	.	32dd 32aa-	8ddd 8ggg 8cccc	.
.	.	.	.	32ee 32gg	.	.
.	.	.	.	32dd 32aa-	.	.
.	.	.	.	32ee 32gg	.	.
.	.	.	.	32dd 32aa-	[8dddJ [8ggg [8cccc	.
.	.	.	.	32ee 32gg	.	.
.	.	.	.	32dd 32aa-	.	.
.	.	.	.	32eeJJJ 32gg	.	.
*	*	*	*	*Xtremolo	*	*
=119	=119	=119	=119	=119	=119	=119
*	*	*	*	*tremolo	*	*
8%9r	[2.BB-X [2.F\	4.d] 4.a-/]	.	32ddLLL 32aa-X\	4.ddd] 4.ggg] 4.cccc/]	.
.	.	.	.	32ee 32gg	.	.
.	.	.	.	32dd 32aa-	.	.
.	.	.	.	32ee 32gg	.	.
.	.	.	.	32dd 32aa-	.	.
.	.	.	.	32ee 32gg	.	.
.	.	.	.	32dd 32aa-	.	.
.	.	.	.	32ee 32gg	.	.
.	.	.	.	32dd 32aa-	.	.
.	.	.	.	32ee 32gg	.	.
.	.	.	.	32dd 32aa-	.	.
.	.	.	.	32ee 32gg	.	.
.	.	[2.d [2.a-X/	.	32dd 32aa-	4rfff	.
.	.	.	.	32ee 32gg	.	.
.	.	.	.	32dd 32aa-	.	.
.	.	.	.	32ee 32gg	.	.
.	.	.	.	32dd 32aa-	.	.
.	.	.	.	32ee 32gg	.	.
.	.	.	.	32dd 32aa-	.	.
.	.	.	.	32ee 32gg	.	.
.	.	.	.	32dd 32aa-	8rfff	.
.	.	.	.	32ee 32gg	.	.
.	.	.	.	32dd 32aa-	.	.
.	.	.	.	32eeJJJ 32gg	.	.
.	4.BB-_ 4.F\_	.	.	32ddLLL 32aa-\	4rfff	.
.	.	.	.	32ee 32gg	.	.
.	.	.	.	32dd 32aa-	.	.
.	.	.	.	32ee 32gg	.	.
.	.	.	.	32dd 32aa-	.	.
.	.	.	.	32ee 32gg	.	.
.	.	.	.	32dd 32aa-	.	.
.	.	.	.	32ee 32gg	.	.
.	.	.	.	32dd 32aa-	8rfff	.
.	.	.	.	32ee 32gg	.	.
.	.	.	.	32dd 32aa-	.	.
.	.	.	.	32eeJJJ 32gg	.	.
*	*	*	*	*Xtremolo	*	*
=120	=120	=120	=120	=120	=120	=120
*	*	*	*	*tremolo	*	*
8%9r	2.BB-_ 2.F\_	2.d] 2.a-/]	.	32ddLLL 32aa-X\	8%9reee	.
.	.	.	.	32ee 32gg	.	.
.	.	.	.	32dd 32aa-	.	.
.	.	.	.	32ee 32gg	.	.
.	.	.	.	32dd 32aa-	.	.
.	.	.	.	32ee 32gg	.	.
.	.	.	.	32dd 32aa-	.	.
.	.	.	.	32ee 32gg	.	.
.	.	.	.	32dd 32aa-	.	.
.	.	.	.	32ee 32gg	.	.
.	.	.	.	32dd 32aa-	.	.
.	.	.	.	32ee 32gg	.	.
.	.	.	.	32dd 32aa-	.	.
.	.	.	.	32ee 32gg	.	.
.	.	.	.	32dd 32aa-	.	.
.	.	.	.	32ee 32gg	.	.
.	.	.	.	32dd 32aa-	.	.
.	.	.	.	32ee 32gg	.	.
.	.	.	.	32dd 32aa-	.	.
.	.	.	.	32ee 32gg	.	.
.	.	.	.	32dd 32aa-	.	.
.	.	.	.	32ee 32gg	.	.
.	.	.	.	32dd 32aa-	.	.
.	.	.	.	32eeJJJ 32gg	.	.
.	4.BB-] 4.F\]	4.d 4.g/	.	32ddLLL 32aa-\	.	.
.	.	.	.	32ee 32gg	.	.
.	.	.	.	32dd 32aa-	.	.
.	.	.	.	32ee 32gg	.	.
.	.	.	.	32dd 32aa-	.	.
.	.	.	.	32ee 32gg	.	.
.	.	.	.	32dd 32aa-	.	.
.	.	.	.	32ee 32gg	.	.
.	.	.	.	32dd 32aa-	.	.
.	.	.	.	32ee 32gg	.	.
.	.	.	.	32dd 32aa-	.	.
.	.	.	.	32eeJJJ 32gg	.	.
*	*	*	*	*Xtremolo	*	*
=121	=121	=121	=121	=121	=121	=121
8%9r	[2.BB-X [2.F\	8c#X 8an/	.	4ryy	4rccc	.
.	.	[4d [4a-X/	.	.	.	.
.	.	.	.	8ryy	8rccc	.
*	*	*	*	*tremolo	*	*
.	.	2.d_ 2.a-/_	.	32ddLLL 32aa-X\	8dddL 8ggg 8ccccn/	.
.	.	.	.	32ee 32gg	.	.
.	.	.	.	32dd 32aa-	.	.
.	.	.	.	32ee 32gg	.	.
.	.	.	.	32dd 32aa-	8ddd 8ggg 8cccc	.
.	.	.	.	32ee 32gg	.	.
.	.	.	.	32dd 32aa-	.	.
.	.	.	.	32ee 32gg	.	.
.	.	.	.	32dd 32aa-	[8dddJ [8ggg [8cccc	.
.	.	.	.	32ee 32gg	.	.
.	.	.	.	32dd 32aa-	.	.
.	.	.	.	32ee 32gg	.	.
.	4.BB-_ 4.F\_	.	.	32dd 32aa-	8dddL] 8ggg] 8cccc/]	.
.	.	.	.	32ee 32gg	.	.
.	.	.	.	32dd 32aa-	.	.
.	.	.	.	32ee 32gg	.	.
.	.	.	.	32dd 32aa-	8ddd 8ggg 8cccc	.
.	.	.	.	32ee 32gg	.	.
.	.	.	.	32dd 32aa-	.	.
.	.	.	.	32ee 32gg	.	.
.	.	.	.	32dd 32aa-	[8dddJ [8ggg [8cccc	.
.	.	.	.	32ee 32gg	.	.
.	.	.	.	32dd 32aa-	.	.
.	.	.	.	32eeJJJ 32gg	.	.
*	*	*	*	*Xtremolo	*	*
=122	=122	=122	=122	=122	=122	=122
*	*	*	*	*tremolo	*	*
8%9r	2.BB-_ 2.F\_	2.d_ 2.a-/_	.	32ddLLL 32aa-X\	4.ddd] 4.ggg] 4.cccc/]	.
.	.	.	.	32ee 32gg	.	.
.	.	.	.	32dd 32aa-	.	.
.	.	.	.	32ee 32gg	.	.
.	.	.	.	32dd 32aa-	.	.
.	.	.	.	32ee 32gg	.	.
.	.	.	.	32dd 32aa-	.	.
.	.	.	.	32ee 32gg	.	.
.	.	.	.	32dd 32aa-	.	.
.	.	.	.	32ee 32gg	.	.
.	.	.	.	32dd 32aa-	.	.
.	.	.	.	32eeJJJ 32gg	.	.
.	.	.	.	32ddLLL 32aa-\	8dddL 8ggg 8cccc/	.
.	.	.	.	32ee 32gg	.	.
.	.	.	.	32dd 32aa-	.	.
.	.	.	.	32ee 32gg	.	.
.	.	.	.	32dd 32aa-	8ddd 8ggg 8cccc	.
.	.	.	.	32ee 32gg	.	.
.	.	.	.	32dd 32aa-	.	.
.	.	.	.	32ee 32gg	.	.
.	.	.	.	32dd 32aa-	[8dddJ [8ggg [8cccc	.
.	.	.	.	32ee 32gg	.	.
.	.	.	.	32dd 32aa-	.	.
.	.	.	.	32ee 32gg	.	.
.	4.BB-] 4.F\]	4.d_ 4.a-/_	.	32dd 32aa-	8dddL] 8ggg] 8cccc/]	.
.	.	.	.	32ee 32gg	.	.
.	.	.	.	32dd 32aa-	.	.
.	.	.	.	32ee 32gg	.	.
.	.	.	.	32dd 32aa-	8ddd 8ggg 8cccc	.
.	.	.	.	32ee 32gg	.	.
.	.	.	.	32dd 32aa-	.	.
.	.	.	.	32ee 32gg	.	.
.	.	.	.	32dd 32aa-	[8dddJ [8ggg [8cccc	.
.	.	.	.	32ee 32gg	.	.
.	.	.	.	32dd 32aa-	.	.
.	.	.	.	32eeJJJ 32gg	.	.
*	*	*	*	*Xtremolo	*	*
=123	=123	=123	=123	=123	=123	=123
*	*	*	*	*tremolo	*	*
8%9r	[2.BB-X [2.F\	4.d] 4.a-/]	.	32ddLLL 32aa-X\	4.ddd] 4.ggg] 4.cccc/]	.
.	.	.	.	32ee 32gg	.	.
.	.	.	.	32dd 32aa-	.	.
.	.	.	.	32ee 32gg	.	.
.	.	.	.	32dd 32aa-	.	.
.	.	.	.	32ee 32gg	.	.
.	.	.	.	32dd 32aa-	.	.
.	.	.	.	32ee 32gg	.	.
.	.	.	.	32dd 32aa-	.	.
.	.	.	.	32ee 32gg	.	.
.	.	.	.	32dd 32aa-	.	.
.	.	.	.	32ee 32gg	.	.
.	.	2.d 2.a-X/	.	32dd 32aa-	4rfff	.
.	.	.	.	32ee 32gg	.	.
.	.	.	.	32dd 32aa-	.	.
.	.	.	.	32ee 32gg	.	.
.	.	.	.	32dd 32aa-	.	.
.	.	.	.	32ee 32gg	.	.
.	.	.	.	32dd 32aa-	.	.
.	.	.	.	32ee 32gg	.	.
.	.	.	.	32dd 32aa-	8rfff	.
.	.	.	.	32ee 32gg	.	.
.	.	.	.	32dd 32aa-	.	.
.	.	.	.	32eeJJJ 32gg	.	.
.	4.BB-_ 4.F\_	.	.	32ddLLL 32aa-\	4rfff	.
.	.	.	.	32ee 32gg	.	.
.	.	.	.	32dd 32aa-	.	.
.	.	.	.	32ee 32gg	.	.
.	.	.	.	32dd 32aa-	.	.
.	.	.	.	32ee 32gg	.	.
.	.	.	.	32dd 32aa-	.	.
.	.	.	.	32ee 32gg	.	.
.	.	.	.	32dd 32aa-	8rfff	.
.	.	.	.	32ee 32gg	.	.
.	.	.	.	32dd 32aa-	.	.
.	.	.	.	32eeJJJ 32gg	.	.
*	*	*	*	*Xtremolo	*	*
=124	=124	=124	=124	=124	=124	=124
*	*	*	*	*tremolo	*	*
8%9r	2.BB-_ 2.F\_	2.d 2.a-X/	.	32ddLLL 32aa-X\	8%9rggg	.
.	.	.	.	32ee 32gg	.	.
.	.	.	.	32dd 32aa-	.	.
.	.	.	.	32ee 32gg	.	.
.	.	.	.	32dd 32aa-	.	.
.	.	.	.	32ee 32gg	.	.
.	.	.	.	32dd 32aa-	.	.
.	.	.	.	32ee 32gg	.	.
.	.	.	.	32dd 32aa-	.	.
.	.	.	.	32ee 32gg	.	.
.	.	.	.	32dd 32aa-	.	.
.	.	.	.	32ee 32gg	.	.
.	.	.	.	32dd 32aa-	.	.
.	.	.	.	32ee 32gg	.	.
.	.	.	.	32dd 32aa-	.	.
.	.	.	.	32ee 32gg	.	.
.	.	.	.	32dd 32aa-	.	.
.	.	.	.	32ee 32gg	.	.
.	.	.	.	32dd 32aa-	.	.
.	.	.	.	32ee 32gg	.	.
.	.	.	.	32dd 32aa-	.	.
.	.	.	.	32ee 32gg	.	.
.	.	.	.	32dd 32aa-	.	.
.	.	.	.	32eeJJJ 32gg	.	.
.	4.BB-] 4.F\]	4.d 4.f 4.an/	.	32ddLLL 32aa-\	.	.
.	.	.	.	32ee 32gg	.	.
.	.	.	.	32dd 32aa-	.	.
.	.	.	.	32ee 32gg	.	.
.	.	.	.	32dd 32aa-	.	.
.	.	.	.	32ee 32gg	.	.
.	.	.	.	32dd 32aa-	.	.
.	.	.	.	32ee 32gg	.	.
.	.	.	.	32dd 32aa-	.	.
.	.	.	.	32ee 32gg	.	.
.	.	.	.	32dd 32aa-	.	.
.	.	.	.	32eeJJJ 32gg	.	.
*	*	*	*	*Xtremolo	*	*
*	*	*	*	*X8va	*X8va	*
*clefF4	*clefG2	*	*	*	*	*
=125	=125	=125	=125	=125	=125	=125
[8qEEE [8qEE/	.	.	.	.	.	.
2.EEE] 2.EE_ [2.BBn [2.G#X/	[2.Bn [2.e [2.g#X [2.a#X\	4rff	.	4ryy	4r	.
.	.	8ee/	.	8ryy	8r	.
.	.	[2.dd#X/	.	4ryy	4r	.
.	.	.	.	8ryy	8r	.
*	*	*	*	*8va	*8va	*
*	*	*	*	*tremolo	*	*
4.EE_ 4.BB_ 4.G#/_	4.B_ 4.e_ 4.g#_ 4.a#\_	.	.	32dd#XLLL 32aa#X\	8ddd#XL 8ggg#X 8cccc#X/	.
.	.	.	.	32ee 32gg#X	.	.
.	.	.	.	32dd# 32aa#	.	.
.	.	.	.	32ee 32gg#	.	.
.	.	.	.	32dd# 32aa#	8ddd# 8ggg# 8cccc#	.
.	.	.	.	32ee 32gg#	.	.
.	.	.	.	32dd# 32aa#	.	.
.	.	.	.	32ee 32gg#	.	.
.	.	.	.	32dd# 32aa#	[8ddd#J [8ggg# [8cccc#	.
.	.	.	.	32ee 32gg#	.	.
.	.	.	.	32dd# 32aa#	.	.
.	.	.	.	32eeJJJ 32gg#	.	.
*	*	*	*	*Xtremolo	*	*
=126	=126	=126	=126	=126	=126	=126
*	*	*	*	*tremolo	*	*
2.EE_ 2.BB_ 2.G#/_	2.B_ 2.e_ 2.g#_ 2.a#\_	2.dd#/_	.	32dd#XLLL 32aa#X\	4.ddd#] 4.ggg#] 4.cccc#/]	.
.	.	.	.	32ee 32gg#X	.	.
.	.	.	.	32dd# 32aa#	.	.
.	.	.	.	32ee 32gg#	.	.
.	.	.	.	32dd# 32aa#	.	.
.	.	.	.	32ee 32gg#	.	.
.	.	.	.	32dd# 32aa#	.	.
.	.	.	.	32ee 32gg#	.	.
.	.	.	.	32dd# 32aa#	.	.
.	.	.	.	32ee 32gg#	.	.
.	.	.	.	32dd# 32aa#	.	.
.	.	.	.	32eeJJJ 32gg#	.	.
.	.	.	.	32dd#LLL 32aa#\	8ddd#XL 8ggg#X 8cccc#X/	.
.	.	.	.	32ee 32gg#	.	.
.	.	.	.	32dd# 32aa#	.	.
.	.	.	.	32ee 32gg#	.	.
.	.	.	.	32dd# 32aa#	8ddd# 8ggg# 8cccc#	.
.	.	.	.	32ee 32gg#	.	.
.	.	.	.	32dd# 32aa#	.	.
.	.	.	.	32ee 32gg#	.	.
.	.	.	.	32dd# 32aa#	[8ddd#J [8ggg# [8cccc#	.
.	.	.	.	32ee 32gg#	.	.
.	.	.	.	32dd# 32aa#	.	.
.	.	.	.	32ee 32gg#	.	.
4.EE_ 4.BB_ 4.G#/_	4.B_ 4.e_ 4.g#_ 4.a#\_	4.dd#/_	.	32dd# 32aa#	8ddd#L] 8ggg#] 8cccc#/]	.
.	.	.	.	32ee 32gg#	.	.
.	.	.	.	32dd# 32aa#	.	.
.	.	.	.	32ee 32gg#	.	.
.	.	.	.	32dd# 32aa#	8ddd# 8ggg# 8cccc#	.
.	.	.	.	32ee 32gg#	.	.
.	.	.	.	32dd# 32aa#	.	.
.	.	.	.	32ee 32gg#	.	.
.	.	.	.	32dd# 32aa#	[8ddd#J [8ggg# [8cccc#	.
.	.	.	.	32ee 32gg#	.	.
.	.	.	.	32dd# 32aa#	.	.
.	.	.	.	32eeJJJ 32gg#	.	.
*	*	*	*	*Xtremolo	*	*
=127	=127	=127	=127	=127	=127	=127
4.EE] 4.BB] 4.G#/]	4.B] 4.e] 4.g#] 4.a#\]	4.dd#/]	.	4ree	8ddd#] 8ggg#] 8cccc#/]	.
.	.	.	.	.	8raaa	.
.	.	.	.	8ree	8raaa	.
[8qBB-X [8qF/	.	.	.	.	.	.
*	*	*	*	*tremolo	*	*
2.BB-_ 2.F\_	2.d 2.a-X\	4rff	.	32ddnLLL 32aa-X\	4raaa	.
.	.	.	.	32ee 32gg	.	.
.	.	.	.	32dd 32aa-	.	.
.	.	.	.	32ee 32gg	.	.
.	.	.	.	32dd 32aa-	.	.
.	.	.	.	32ee 32gg	.	.
.	.	.	.	32dd 32aa-	.	.
.	.	.	.	32ee 32gg	.	.
.	.	8rff	.	32dd 32aa-	8raaa	.
.	.	.	.	32ee 32gg	.	.
.	.	.	.	32dd 32aa-	.	.
.	.	.	.	32eeJJJ 32gg	.	.
.	.	4rff	.	32ddLLL 32aa-\	4raaa	.
.	.	.	.	32ee 32gg	.	.
.	.	.	.	32dd 32aa-	.	.
.	.	.	.	32ee 32gg	.	.
.	.	.	.	32dd 32aa-	.	.
.	.	.	.	32ee 32gg	.	.
.	.	.	.	32dd 32aa-	.	.
.	.	.	.	32ee 32gg	.	.
.	.	8rff	.	32dd 32aa-	8raaa	.
.	.	.	.	32ee 32gg	.	.
.	.	.	.	32dd 32aa-	.	.
.	.	.	.	32eeJJJ 32gg	.	.
*	*	*	*	*Xtremolo	*	*
=128	=128	=128	=128	=128	=128	=128
*	*	*	*	*tremolo	*	*
2.BB-_ 2.F\_	2.d 2.a-X\	8%9ree	.	32ddLLL 32aa-X\	8%9reee	.
.	.	.	.	32ee 32gg	.	.
.	.	.	.	32dd 32aa-	.	.
.	.	.	.	32ee 32gg	.	.
.	.	.	.	32dd 32aa-	.	.
.	.	.	.	32ee 32gg	.	.
.	.	.	.	32dd 32aa-	.	.
.	.	.	.	32ee 32gg	.	.
.	.	.	.	32dd 32aa-	.	.
.	.	.	.	32ee 32gg	.	.
.	.	.	.	32dd 32aa-	.	.
.	.	.	.	32ee 32gg	.	.
.	.	.	.	32dd 32aa-	.	.
.	.	.	.	32ee 32gg	.	.
.	.	.	.	32dd 32aa-	.	.
.	.	.	.	32ee 32gg	.	.
.	.	.	.	32dd 32aa-	.	.
.	.	.	.	32ee 32gg	.	.
.	.	.	.	32dd 32aa-	.	.
.	.	.	.	32ee 32gg	.	.
.	.	.	.	32dd 32aa-	.	.
.	.	.	.	32ee 32gg	.	.
.	.	.	.	32dd 32aa-	.	.
.	.	.	.	32eeJJJ 32gg	.	.
4.BB-] 4.F\]	4.d 4.f 4.an\	.	.	32ddLLL 32aa-\	.	.
.	.	.	.	32ee 32gg	.	.
.	.	.	.	32dd 32aa-	.	.
.	.	.	.	32ee 32gg	.	.
.	.	.	.	32dd 32aa-	.	.
.	.	.	.	32ee 32gg	.	.
.	.	.	.	32dd 32aa-	.	.
.	.	.	.	32ee 32gg	.	.
.	.	.	.	32dd 32aa-	.	.
.	.	.	.	32ee 32gg	.	.
.	.	.	.	32dd 32aa-	.	.
.	.	.	.	32eeJJJ 32gg	.	.
*	*	*	*	*Xtremolo	*	*
*	*	*	*	*X8va	*X8va	*
=129	=129	=129	=129	=129	=129	=129
[2.EE [2.BB [2.G#X/	[2.B [2.e [2.g#X [2.a#X\	4rff	.	4ryy	4r	.
.	.	8ee/	.	8ryy	8r	.
.	.	[2.dd#X/	.	4ryy	4r	.
.	.	.	.	8ryy	8r	.
*	*	*	*	*8va	*8va	*
*	*	*	*	*tremolo	*	*
4.EE_ 4.BB_ 4.G#/_	4.B_ 4.e_ 4.g#_ 4.a#\_	.	.	32dd#XLLL 32aa#X\	8ddd#XL 8ggg#X 8cccc#X/	.
.	.	.	.	32ee 32gg#X	.	.
.	.	.	.	32dd# 32aa#	.	.
.	.	.	.	32ee 32gg#	.	.
.	.	.	.	32dd# 32aa#	8ddd# 8ggg# 8cccc#	.
.	.	.	.	32ee 32gg#	.	.
.	.	.	.	32dd# 32aa#	.	.
.	.	.	.	32ee 32gg#	.	.
.	.	.	.	32dd# 32aa#	[8ddd#J [8ggg# [8cccc#	.
.	.	.	.	32ee 32gg#	.	.
.	.	.	.	32dd# 32aa#	.	.
.	.	.	.	32eeJJJ 32gg#	.	.
*	*	*	*	*Xtremolo	*	*
=130	=130	=130	=130	=130	=130	=130
*	*	*	*	*tremolo	*	*
2.EE_ 2.BB_ 2.G#/_	2.B_ 2.e_ 2.g#_ 2.a#\_	2.dd#/_	.	32dd#XLLL 32aa#X\	4.ddd#] 4.ggg#] 4.cccc#/]	.
.	.	.	.	32ee 32gg#X	.	.
.	.	.	.	32dd# 32aa#	.	.
.	.	.	.	32ee 32gg#	.	.
.	.	.	.	32dd# 32aa#	.	.
.	.	.	.	32ee 32gg#	.	.
.	.	.	.	32dd# 32aa#	.	.
.	.	.	.	32ee 32gg#	.	.
.	.	.	.	32dd# 32aa#	.	.
.	.	.	.	32ee 32gg#	.	.
.	.	.	.	32dd# 32aa#	.	.
.	.	.	.	32eeJJJ 32gg#	.	.
.	.	.	.	32dd#LLL 32aa#\	8ddd#XL 8ggg#X 8cccc#X/	.
.	.	.	.	32ee 32gg#	.	.
.	.	.	.	32dd# 32aa#	.	.
.	.	.	.	32ee 32gg#	.	.
.	.	.	.	32dd# 32aa#	8ddd# 8ggg# 8cccc#	.
.	.	.	.	32ee 32gg#	.	.
.	.	.	.	32dd# 32aa#	.	.
.	.	.	.	32ee 32gg#	.	.
.	.	.	.	32dd# 32aa#	[8ddd#J [8ggg# [8cccc#	.
.	.	.	.	32ee 32gg#	.	.
.	.	.	.	32dd# 32aa#	.	.
.	.	.	.	32ee 32gg#	.	.
4.EE_ 4.BB_ 4.G#/_	4.B] 4.e] 4.g#] 4.a#\]	4.dd#/]	.	32dd# 32aa#	8ddd#L] 8ggg#] 8cccc#/]	.
.	.	.	.	32ee 32gg#	.	.
.	.	.	.	32dd# 32aa#	.	.
.	.	.	.	32ee 32gg#	.	.
.	.	.	.	32dd# 32aa#	8ddd# 8ggg# 8cccc#	.
.	.	.	.	32ee 32gg#	.	.
.	.	.	.	32dd# 32aa#	.	.
.	.	.	.	32ee 32gg#	.	.
.	.	.	.	32dd# 32aa#	8ddd#J 8ggg# 8cccc#	.
.	.	.	.	32ee 32gg#	.	.
.	.	.	.	32dd# 32aa#	.	.
.	.	.	.	32eeJJJ 32gg#	.	.
*	*	*	*	*Xtremolo	*	*
=131	=131	=131	=131	=131	=131	=131
2.EE_ 2.BB_ 2.G#/_	[2.B [2.e [2.g#X [2.a#X\	4rff	.	4ryy	4rccc	.
.	.	8ee/	.	8ryy	8rccc	.
.	.	[2.dd#X/	.	4ryy	4rccc	.
.	.	.	.	8ryy	8rccc	.
*	*	*	*	*tremolo	*	*
4.EE_ 4.BB_ 4.G#/_	4.B_ 4.e_ 4.g#_ 4.a#\_	.	.	32dd#XLLL 32aa#X\	8ddd#XL 8ggg#X 8cccc#X/	.
.	.	.	.	32ee 32gg#X	.	.
.	.	.	.	32dd# 32aa#	.	.
.	.	.	.	32ee 32gg#	.	.
.	.	.	.	32dd# 32aa#	8ddd# 8ggg# 8cccc#	.
.	.	.	.	32ee 32gg#	.	.
.	.	.	.	32dd# 32aa#	.	.
.	.	.	.	32ee 32gg#	.	.
.	.	.	.	32dd# 32aa#	[8ddd#J [8ggg# [8cccc#	.
.	.	.	.	32ee 32gg#	.	.
.	.	.	.	32dd# 32aa#	.	.
.	.	.	.	32eeJJJ 32gg#	.	.
*	*	*	*	*Xtremolo	*	*
=132	=132	=132	=132	=132	=132	=132
*	*	*	*	*tremolo	*	*
2.EE_ 2.BB_ 2.G#/_	2.B_ 2.e_ 2.g#_ 2.a#\_	2.dd#/_	.	32dd#XLLL 32aa#X\	4.ddd#] 4.ggg#] 4.cccc#/]	.
.	.	.	.	32ee 32gg#X	.	.
.	.	.	.	32dd# 32aa#	.	.
.	.	.	.	32ee 32gg#	.	.
.	.	.	.	32dd# 32aa#	.	.
.	.	.	.	32ee 32gg#	.	.
.	.	.	.	32dd# 32aa#	.	.
.	.	.	.	32ee 32gg#	.	.
.	.	.	.	32dd# 32aa#	.	.
.	.	.	.	32ee 32gg#	.	.
.	.	.	.	32dd# 32aa#	.	.
.	.	.	.	32eeJJJ 32gg#	.	.
.	.	.	.	32dd#LLL 32aa#\	8ddd#XL 8ggg#X 8cccc#X/	.
.	.	.	.	32ee 32gg#	.	.
.	.	.	.	32dd# 32aa#	.	.
.	.	.	.	32ee 32gg#	.	.
.	.	.	.	32dd# 32aa#	8ddd# 8ggg# 8cccc#	.
.	.	.	.	32ee 32gg#	.	.
.	.	.	.	32dd# 32aa#	.	.
.	.	.	.	32ee 32gg#	.	.
.	.	.	.	32dd# 32aa#	[8ddd#J [8ggg# [8cccc#	.
.	.	.	.	32ee 32gg#	.	.
.	.	.	.	32dd# 32aa#	.	.
.	.	.	.	32ee 32gg#	.	.
4.EE] 4.BB] 4.G#/]	4.B] 4.e] 4.g#] 4.a#\]	4.dd#/]	.	32dd# 32aa#	8ddd#L] 8ggg#] 8cccc#/]	.
.	.	.	.	32ee 32gg#	.	.
.	.	.	.	32dd# 32aa#	.	.
.	.	.	.	32ee 32gg#	.	.
.	.	.	.	32dd# 32aa#	8ddd# 8ggg# 8cccc#	.
.	.	.	.	32ee 32gg#	.	.
.	.	.	.	32dd# 32aa#	.	.
.	.	.	.	32ee 32gg#	.	.
.	.	.	.	32dd# 32aa#	[8ddd#J [8ggg# [8cccc#	.
.	.	.	.	32ee 32gg#	.	.
.	.	.	.	32dd# 32aa#	.	.
.	.	.	.	32eeJJJ 32gg#	.	.
*	*	*	*	*Xtremolo	*	*
*	*v	*v	*	*	*	*
*	*	*	*v	*v	*
*	*clefF4	*	*	*
=133	=133	=133	=133	=133
8%9r	4.EEE 4.EE/	.	4.ddd#] 4.ggg#] 4.cccc#\]	.
.	4.BB/	.	8ddd#XL 8ggg#X 8cccc#X\	.
.	.	.	8ddd# 8ggg# 8cccc#	.
.	.	.	[8ddd#J [8ggg# [8cccc#	.
.	4.G#X\	.	8ddd#L] 8ggg#] 8cccc#\]	.
.	.	.	8ddd# 8ggg# 8cccc#	.
.	.	.	[8ddd#J [8ggg# [8cccc#	.
=134	=134	=134	=134	=134
8%9r	4.B\	.	4.ddd#] 4.ggg#] 4.cccc#\]	.
.	4.e\	.	8ddd#XL 8ggg#X 8cccc#X\	.
.	.	.	8ddd# 8ggg# 8cccc#	.
.	.	.	[8ddd#J [8ggg# [8cccc#	.
.	4.g#X\	.	8ddd#L] 8ggg#] 8cccc#\]	.
.	.	.	8ddd# 8ggg# 8cccc#	.
.	.	.	[8ddd#J [8ggg# [8cccc#	.
*	*clefG2	*	*	*
=135	=135	=135	=135	=135
8%9r	4.a#X/	.	4.ddd#] 4.ggg#] 4.cccc#\]	.
.	4.dd#X\	.	8ddd#XL 8ggg#X 8cccc#X\	.
.	.	.	8ddd# 8ggg# 8cccc#	.
.	.	.	[8ddd#J [8ggg# [8cccc#	.
.	4.gg#X\	.	8ddd#L] 8ggg#] 8cccc#\]	.
.	.	.	8ddd# 8ggg# 8cccc#	.
.	.	.	[8ddd#J [8ggg# [8cccc#	.
=136	=136	=136	=136	=136
8%9r	4.aa#X\	.	8ddd#] 8ggg#] 8cccc#\]	.
.	.	.	8r	.
.	.	.	8r	.
.	4ryy	.	4.ddd#X\	.
.	8ryy	.	.	.
.	4ryy	.	4.ggg#X\	.
.	8ryy	.	.	.
*	*clefF4	*	*	*
=137	=137	=137	=137	=137
8%9r	4.EEE 4.EE/	.	4.cccc#X\	.
*	*	*	*X8va	*
.	4r	.	4r	.
.	8r	.	8r	.
.	4r	.	4r	.
.	8r	.	8r	.
==	==	==	==	==
*-	*-	*-	*-	*-
!!!system-decoration: {(*)}
!!!ENC: Bryan Jacob Bell
!!!END: November 2021 to April 2022
!!!PED: Gnter Philipp
!!!PTL: Ausgewhlte Klavierwerke (Edition Peters)
